( G-Code Modified by G-Code Ripper                        )
( by Scorch - 2013-2025 www.scorchworks.com                    )
G90   (set absolute distance mode)
G90.1 (set absolute distance mode for arc centers)
G17   (set active plane to XY)
G21   (set units to mm)
(G-Code Preamble)
(---------------------------------------------------------)
( LinuxCNC Post-Processor )
( File created 20/07/2025 02:13:10 )
( Dimensions: 58.191mm x 37.236mm )
G40 G54 
G80 G94 
G64 P0.02 
( 0.5 Tool #1 "Akki Gravier" / Diameter 0.5 mm )
M06 T1 
M03 S12000 
G04 P2 
M07 
G1 X 1.5540 Y 0.8230 Z 0.4979 F 3000.00
G1 F 1200.00
G1 Z-0.0021 F 1500.00
G1 Z-0.1121 F 60.00
G1 X 1.8000 Z-0.1114 F 450.00
G1 X 1.8320 Y 0.8260 Z-0.1113
G1 X 1.8640 Y 0.8360 Z-0.1112
G1 X 1.8930 Y 0.8510 Z-0.1111
G1 X 1.9180 Y 0.8720
G1 X 1.9390 Y 0.8970 Z-0.1110
G1 X 1.9540 Y 0.9260
G1 X 1.9640 Y 0.9580
G1 X 1.9670 Y 0.9910
G1 X 1.9640 Y 1.0230
G1 X 1.9540 Y 1.0550
G1 X 1.9390 Y 1.0840 Z-0.1111
G1 X 1.9180 Y 1.1090 Z-0.1112
G1 X 1.8930 Y 1.1300
G1 X 1.8640 Y 1.1450 Z-0.1113
G1 X 1.8320 Y 1.1550 Z-0.1114
G1 X 1.8000 Y 1.1580 Z-0.1115
G1 X 1.7210 Z-0.1118
G1 Y 1.7280 Z-0.1120
G1 X 1.7180 Y 1.7600
G1 X 1.7090 Y 1.7920 Z-0.1121
G1 X 1.6930 Y 1.8210
G1 X 1.6720 Y 1.8460 Z-0.1122
G1 X 1.6470 Y 1.8670 Z-0.1123
G1 X 1.6180 Y 1.8830 Z-0.1124
G1 X 1.5860 Y 1.8920 Z-0.1125
G1 X 1.5540 Y 1.8950 Z-0.1126
G1 X 1.5210 Y 1.8920 Z-0.1127
G1 X 1.4900 Y 1.8830 Z-0.1128
G1 X 1.4610 Y 1.8670
G1 X 1.4350 Y 1.8460 Z-0.1129
G1 X 1.1900 Y 1.6010 Z-0.1135
G1 X 1.1690 Y 1.5750 Z-0.1136
G1 X 1.1530 Y 1.5460
G1 X 1.1440 Y 1.5150
G1 X 1.1410 Y 1.4820
G1 X 1.1440 Y 1.4490
G1 X 1.1530 Y 1.4180
G1 X 1.1690 Y 1.3890 Z-0.1135
G1 X 1.1900 Y 1.3640 Z-0.1134
G1 X 1.2150 Y 1.3430 Z-0.1133
G1 X 1.2440 Y 1.3270 Z-0.1132
G1 X 1.2750 Y 1.3180 Z-0.1131
G1 X 1.3080 Y 1.3150 Z-0.1130
G1 X 1.3410 Y 1.3180 Z-0.1129
G1 X 1.3720 Y 1.3270
G1 X 1.3860 Y 1.3350 Z-0.1128
G1 Y 1.1580 Z-0.1127
G1 X 1.3080 Z-0.1130
G1 X 1.2750 Y 1.1550 Z-0.1131
G1 X 1.2440 Y 1.1450
G1 X 1.2150 Y 1.1300 Z-0.1132
G1 X 1.1900 Y 1.1090 Z-0.1133
G1 X 1.1690 Y 1.0840
G1 X 1.1530 Y 1.0550 Z-0.1134
G1 X 1.1440 Y 1.0230
G1 X 1.1410 Y 0.9910
G1 X 1.1440 Y 0.9580 Z-0.1133
G1 X 1.1530 Y 0.9260
G1 X 1.1690 Y 0.8970 Z-0.1132
G1 X 1.1900 Y 0.8720
G1 X 1.2150 Y 0.8510 Z-0.1131
G1 X 1.2440 Y 0.8360 Z-0.1130
G1 X 1.2750 Y 0.8260 Z-0.1129
G1 X 1.3080 Y 0.8230 Z-0.1128
G1 X 1.5540 Z-0.1121
G1 Y 0.7360
G1 X 1.8000 Z-0.1113
G1 X 1.8490 Y 0.7410 Z-0.1112
G1 X 1.8970 Y 0.7560 Z-0.1111
G1 X 1.9410 Y 0.7790 Z-0.1110
G1 X 1.9790 Y 0.8110 Z-0.1109
G1 X 2.0110 Y 0.8490 Z-0.1108
G1 X 2.0350 Y 0.8930 Z-0.1107
G1 X 2.0490 Y 0.9410
G1 X 2.0540 Y 0.9910
G1 X 2.0490 Y 1.0400
G1 X 2.0350 Y 1.0880 Z-0.1108
G1 X 2.0110 Y 1.1320 Z-0.1109
G1 X 1.9790 Y 1.1700 Z-0.1110
G1 X 1.9410 Y 1.2020 Z-0.1111
G1 X 1.8970 Y 1.2260 Z-0.1113
G1 X 1.8490 Y 1.2400 Z-0.1114
G1 X 1.8080 Y 1.2440 Z-0.1115
G1 Y 1.6750 Z-0.1117
G1 Y 1.7280
G1 X 1.8030 Y 1.7770 Z-0.1118
G1 X 1.7890 Y 1.8250
G1 X 1.7650 Y 1.8690 Z-0.1119
G1 X 1.7340 Y 1.9080 Z-0.1120
G1 X 1.6950 Y 1.9390 Z-0.1122
G1 X 1.6510 Y 1.9630 Z-0.1123
G1 X 1.6030 Y 1.9770 Z-0.1125
G1 X 1.5540 Y 1.9820 Z-0.1126
G1 X 1.5040 Y 1.9770 Z-0.1128
G1 X 1.4560 Y 1.9630 Z-0.1129
G1 X 1.4120 Y 1.9390 Z-0.1130
G1 X 1.3740 Y 1.9080 Z-0.1131
G1 X 1.1280 Y 1.6620 Z-0.1137
G1 X 1.0970 Y 1.6230 Z-0.1138
G1 X 1.0730 Y 1.5790 Z-0.1139
G1 X 1.0590 Y 1.5320
G1 X 1.0540 Y 1.4820
G1 X 1.0590 Y 1.4320 Z-0.1138
G1 X 1.0730 Y 1.3850
G1 X 1.0970 Y 1.3410 Z-0.1137
G1 X 1.1280 Y 1.3020 Z-0.1136
G1 X 1.1670 Y 1.2710 Z-0.1134
G1 X 1.2110 Y 1.2470 Z-0.1133
G1 X 1.2460 Y 1.2360 Z-0.1132
G1 X 1.2110 Y 1.2260 Z-0.1133
G1 X 1.1670 Y 1.2020 Z-0.1134
G1 X 1.1280 Y 1.1700 Z-0.1135
G1 X 1.0970 Y 1.1320 Z-0.1136
G1 X 1.0730 Y 1.0880
G1 X 1.0590 Y 1.0400
G1 X 1.0540 Y 0.9910
G1 X 1.0590 Y 0.9410
G1 X 1.0730 Y 0.8930 Z-0.1135
G1 X 1.0970 Y 0.8490 Z-0.1134
G1 X 1.1280 Y 0.8110 Z-0.1133
G1 X 1.1670 Y 0.7790 Z-0.1132
G1 X 1.2110 Y 0.7560 Z-0.1131
G1 X 1.2580 Y 0.7410 Z-0.1129
G1 X 1.3080 Y 0.7360 Z-0.1128
G1 X 1.5540 Z-0.1121
G1 Z 0.4979 F 3000.00
G1 X 2.0530 Y 0.9410 Z 0.4993 F 1200.00
G1 Z-0.0007 F 1500.00
G1 Z-0.1107 F 60.00
G1 X 2.0670 Y 0.8930 Z-0.1106 F 450.00
G1 X 2.0910 Y 0.8490 Z-0.1105
G1 X 2.1220 Y 0.8110 Z-0.1104
G1 X 2.1610 Y 0.7790 Z-0.1103
G1 X 2.2050 Y 0.7560 Z-0.1102
G1 X 2.2530 Y 0.7410 Z-0.1100
G1 X 2.3020 Y 0.7360 Z-0.1099
G1 X 2.3520 Y 0.7410 Z-0.1097
G1 X 2.4000 Y 0.7560 Z-0.1096
G1 X 2.4440 Y 0.7790 Z-0.1095
G1 X 2.4820 Y 0.8110 Z-0.1094
G1 X 2.5140 Y 0.8490 Z-0.1093
G1 X 2.5370 Y 0.8930
G1 X 2.5520 Y 0.9410 Z-0.1092
G1 X 2.5570 Y 0.9910
G1 Y 1.0600 Z-0.1093
G1 Y 1.1140
G1 X 2.5510
G1 Y 1.4740 Z-0.1094
G1 Z 0.5006 F 3000.00
G1 X 2.4700 Y 1.5600 Z 0.5003 F 1200.00
G1 Z 0.0003 F 1500.00
G1 Z-0.1097 F 60.00
G1 X 2.5480 Z-0.1094 F 450.00
G1 X 2.5810 Y 1.5630 Z-0.1093
G1 X 2.6120 Y 1.5730
G1 X 2.6410 Y 1.5880 Z-0.1092
G1 X 2.6370 Y 1.1140 Z-0.1090
G1 X 2.6410 Y 1.0810
G1 X 2.6500 Y 1.0490
G1 X 2.6660 Y 1.0200 Z-0.1089
G1 X 2.6860 Y 0.9950
G1 X 2.8090 Y 0.8720 Z-0.1085
G1 X 2.8350 Y 0.8510 Z-0.1084
G1 X 2.8640 Y 0.8360 Z-0.1083
G1 X 2.8950 Y 0.8260 Z-0.1082
G1 X 2.9280 Y 0.8230 Z-0.1081
G1 X 3.1730 Z-0.1074
G1 X 3.2060 Y 0.8260 Z-0.1073
G1 X 3.2380 Y 0.8360 Z-0.1072
G1 X 3.2670 Y 0.8510 Z-0.1071
G1 X 3.2920 Y 0.8720
G1 X 3.3880 Y 0.9680 Z-0.1068
G1 X 3.3990 Y 0.9260
G1 X 3.4140 Y 0.8970 Z-0.1067
G1 X 3.4350 Y 0.8720 Z-0.1066
G1 X 3.4600 Y 0.8510
G1 X 3.4890 Y 0.8360 Z-0.1065
G1 X 3.5210 Y 0.8260 Z-0.1064
G1 X 3.5530 Y 0.8230 Z-0.1063
G1 X 3.5860 Y 0.8260 Z-0.1062
G1 X 3.6180 Y 0.8360 Z-0.1061
G1 X 3.6470 Y 0.8510 Z-0.1060
G1 X 3.6720 Y 0.8720
G1 X 3.6930 Y 0.8970 Z-0.1059
G1 X 3.7080 Y 0.9260
G1 X 3.7180 Y 0.9580 Z-0.1058
G1 X 3.7210 Y 0.9910
G1 Y 1.0690
G1 X 3.9220 Z-0.1053
G1 X 3.9550 Y 1.0720 Z-0.1052
G1 X 3.9860 Y 1.0810 Z-0.1051
G1 X 4.0150 Y 1.0970 Z-0.1050
G1 X 4.0410 Y 1.1180 Z-0.1049
G1 X 4.1630 Y 1.2410 Z-0.1046
G1 X 4.1840 Y 1.2660 Z-0.1045
G1 X 4.2000 Y 1.2950
G1 X 4.2090 Y 1.3260 Z-0.1044
G1 X 4.2130 Y 1.3590
G1 Y 1.6050 Z-0.1045
G1 X 4.2090 Y 1.6380
G1 X 4.2000 Y 1.6690
G1 X 4.1840 Y 1.6980 Z-0.1046
G1 X 4.1630 Y 1.7240
G1 X 4.0400 Y 1.8460 Z-0.1050
G1 X 4.0150 Y 1.8670 Z-0.1051
G1 X 3.9860 Y 1.8830 Z-0.1052
G1 X 3.9550 Y 1.8920 Z-0.1053
G1 X 3.9220 Y 1.8950 Z-0.1054
G1 X 3.5530 Z-0.1065
G1 X 3.5210 Y 1.8920 Z-0.1066
G1 X 3.4890 Y 1.8830 Z-0.1067
G1 X 3.4600 Y 1.8670 Z-0.1068
G1 X 3.4350 Y 1.8460 Z-0.1069
G1 X 3.4140 Y 1.8210
G1 X 3.3990 Y 1.7920
G1 X 3.3880 Y 1.7500 Z-0.1070
G1 X 3.2920 Y 1.8460 Z-0.1073
G1 X 3.2660 Y 1.8670 Z-0.1074
G1 X 3.2370 Y 1.8830 Z-0.1075
G1 X 3.2060 Y 1.8920 Z-0.1076
G1 X 3.1730 Y 1.8950 Z-0.1077
G1 X 2.9280 Z-0.1084
G1 X 2.8950 Y 1.8920 Z-0.1085
G1 X 2.8640 Y 1.8830 Z-0.1086
G1 X 2.8350 Y 1.8670 Z-0.1087
G1 X 2.8090 Y 1.8460
G1 X 2.7130 Y 1.7500 Z-0.1090
G1 X 2.7030 Y 1.7920 Z-0.1091
G1 X 2.6870 Y 1.8210
G1 X 2.6660 Y 1.8460 Z-0.1092
G1 X 2.6410 Y 1.8670 Z-0.1093
G1 X 2.6120 Y 1.8830 Z-0.1094
G1 X 2.5810 Y 1.8920 Z-0.1095
G1 X 2.5480 Y 1.8950 Z-0.1096
G1 X 2.3020 Z-0.1103
G1 X 2.0570 Z-0.1110
G1 X 2.0240 Y 1.8920 Z-0.1111
G1 X 1.9930 Y 1.8830 Z-0.1112
G1 X 1.9640 Y 1.8670 Z-0.1113
G1 X 1.9380 Y 1.8460 Z-0.1114
G1 X 1.9170 Y 1.8210
G1 X 1.9020 Y 1.7920 Z-0.1115
G1 X 1.8920 Y 1.7600
G1 X 1.8890 Y 1.7280
G1 X 1.8920 Y 1.6950
G1 X 1.9020 Y 1.6640 Z-0.1114
G1 X 1.9170 Y 1.6350
G1 X 1.9380 Y 1.6090 Z-0.1113
G1 X 1.9640 Y 1.5880 Z-0.1112
G1 X 1.9930 Y 1.5730 Z-0.1111
G1 X 2.0240 Y 1.5630 Z-0.1110
G1 X 2.0570 Y 1.5600 Z-0.1109
G1 X 2.1350 Z-0.1107
G1 Y 0.9910 Z-0.1105
G1 X 2.1380 Y 0.9580 Z-0.1104
G1 X 2.1470 Y 0.9260
G1 X 2.1630 Y 0.8970
G1 X 2.1840 Y 0.8720 Z-0.1103
G1 X 2.2090 Y 0.8510 Z-0.1102
G1 X 2.2380 Y 0.8360 Z-0.1101
G1 X 2.2700 Y 0.8260 Z-0.1100
G1 X 2.3020 Y 0.8230 Z-0.1099
G1 X 2.3350 Y 0.8260 Z-0.1098
G1 X 2.3660 Y 0.8360 Z-0.1097
G1 X 2.3950 Y 0.8510
G1 X 2.4210 Y 0.8720 Z-0.1096
G1 X 2.4420 Y 0.8970 Z-0.1095
G1 X 2.4570 Y 0.9260
G1 X 2.4670 Y 0.9580
G1 X 2.4700 Y 0.9910
G1 Y 1.5600 Z-0.1097
G1 Z 0.5003 F 3000.00
G1 X 2.5550 Y 1.0640 Z 0.5007 F 1200.00
G1 Z 0.0007 F 1500.00
G1 Z-0.1093 F 60.00
G1 X 2.5700 Y 1.0160 Z-0.1092 F 450.00
G1 X 2.5930 Y 0.9720 Z-0.1091
G1 X 2.6250 Y 0.9340 Z-0.1090
G1 X 2.7480 Y 0.8110 Z-0.1086
G1 X 2.7870 Y 0.7790 Z-0.1085
G1 X 2.8310 Y 0.7560 Z-0.1084
G1 X 2.8780 Y 0.7410 Z-0.1082
G1 X 2.9280 Y 0.7360 Z-0.1081
G1 X 3.1730 Z-0.1074
G1 X 3.2230 Y 0.7410 Z-0.1072
G1 X 3.2710 Y 0.7560 Z-0.1071
G1 X 3.3150 Y 0.7790 Z-0.1070
G1 X 3.3530 Y 0.8110 Z-0.1069
G1 X 3.3640 Y 0.8220 Z-0.1068
G1 X 3.3740 Y 0.8110
G1 X 3.4120 Y 0.7790 Z-0.1067
G1 X 3.4560 Y 0.7560 Z-0.1066
G1 X 3.5040 Y 0.7410 Z-0.1064
G1 X 3.5530 Y 0.7360 Z-0.1063
G1 X 3.6030 Y 0.7410 Z-0.1061
G1 X 3.6510 Y 0.7560 Z-0.1060
G1 X 3.6950 Y 0.7790 Z-0.1059
G1 X 3.7330 Y 0.8110 Z-0.1058
G1 X 3.7650 Y 0.8490 Z-0.1057
G1 X 3.7880 Y 0.8930 Z-0.1056
G1 X 3.8030 Y 0.9410
G1 X 3.8070 Y 0.9820
G1 X 3.9220 Z-0.1052
G1 X 3.9720 Y 0.9870 Z-0.1051
G1 X 4.0190 Y 1.0010 Z-0.1050
G1 X 4.0630 Y 1.0250 Z-0.1048
G1 X 4.1020 Y 1.0560 Z-0.1047
G1 X 4.2250 Y 1.1790 Z-0.1044
G1 X 4.2560 Y 1.2180 Z-0.1043
G1 X 4.2800 Y 1.2620 Z-0.1042
G1 X 4.2940 Y 1.3100
G1 X 4.2990 Y 1.3590
G1 Y 1.6050
G1 X 4.2940 Y 1.6550
G1 X 4.2800 Y 1.7030 Z-0.1043
G1 X 4.2560 Y 1.7470 Z-0.1044
G1 X 4.2250 Y 1.7850 Z-0.1045
G1 X 4.1020 Y 1.9080 Z-0.1048
G1 X 4.0630 Y 1.9390 Z-0.1050
G1 X 4.0190 Y 1.9630 Z-0.1051
G1 X 3.9720 Y 1.9770 Z-0.1052
G1 X 3.9220 Y 1.9820 Z-0.1054
G1 X 3.5530 Z-0.1065
G1 X 3.5040 Y 1.9770 Z-0.1067
G1 X 3.4560 Y 1.9630 Z-0.1068
G1 X 3.4120 Y 1.9390 Z-0.1069
G1 X 3.3740 Y 1.9080 Z-0.1070
G1 X 3.3640 Y 1.8960 Z-0.1071
G1 X 3.3530 Y 1.9080
G1 X 3.3150 Y 1.9390 Z-0.1072
G1 X 3.2710 Y 1.9630 Z-0.1074
G1 X 3.2230 Y 1.9770 Z-0.1075
G1 X 3.1730 Y 1.9820 Z-0.1077
G1 X 2.9280 Z-0.1084
G1 X 2.8780 Y 1.9770 Z-0.1086
G1 X 2.8310 Y 1.9630 Z-0.1087
G1 X 2.7870 Y 1.9390 Z-0.1088
G1 X 2.7480 Y 1.9080 Z-0.1090
G1 X 2.7370 Y 1.8960
G1 X 2.7280 Y 1.9080
G1 X 2.6890 Y 1.9390 Z-0.1091
G1 X 2.6450 Y 1.9630 Z-0.1093
G1 X 2.5970 Y 1.9770 Z-0.1094
G1 X 2.5480 Y 1.9820 Z-0.1096
G1 X 2.3020 Z-0.1103
G1 X 2.0570 Z-0.1111
G1 X 2.0070 Y 1.9770 Z-0.1112
G1 X 1.9590 Y 1.9630 Z-0.1114
G1 X 1.9150 Y 1.9390 Z-0.1115
G1 X 1.8770 Y 1.9080 Z-0.1116
G1 X 1.8450 Y 1.8690 Z-0.1117
G1 X 1.8220 Y 1.8250
G1 X 1.8070 Y 1.7770 Z-0.1118
G1 Y 1.6780 Z-0.1117
G1 X 1.8220 Y 1.6300 Z-0.1116
G1 X 1.8450 Y 1.5860
G1 X 1.8770 Y 1.5480 Z-0.1115
G1 X 1.9150 Y 1.5160 Z-0.1113
G1 X 1.9590 Y 1.4930 Z-0.1112
G1 X 2.0070 Y 1.4780 Z-0.1110
G1 X 2.0480 Y 1.4740 Z-0.1109
G1 Y 1.0440 Z-0.1107
G1 Z 0.4993 F 3000.00
G1 X 1.9610 Y 1.2890 Z 0.4989 F 1200.00
G1 Z-0.0011 F 1500.00
G1 Z-0.1111 F 60.00
G1 Y 1.4020 F 450.00
G1 X 1.9260 Y 1.4130 Z-0.1112
G1 X 1.8950 Y 1.4290 Z-0.1113
G1 Y 1.3160
G1 X 1.9300 Y 1.3060 Z-0.1112
G1 X 1.9610 Y 1.2890 Z-0.1111
G1 Z 0.4989 F 3000.00
G1 X 1.8050 Y 1.9560 Z 0.4982 F 1200.00
G1 Z-0.0018 F 1500.00
G1 Z-0.1118 F 60.00
G1 X 1.7950 Y 1.9690 Z-0.1119 F 450.00
G1 X 1.7430 Y 2.0110 Z-0.1120
G1 X 1.7470 Y 2.0080
G1 X 1.8640 Z-0.1117
G1 X 1.8670 Y 2.0110
G1 X 1.8150 Y 1.9690 Z-0.1118
G1 X 1.8050 Y 1.9560
G1 Z 0.4982 F 3000.00
G1 X 2.3885 Y 1.5695 Z 0.5001 F 1200.00
G1 X 2.9720 Y 1.1830 Z 0.5019
G1 Z 0.0019 F 1500.00
G1 Z-0.1081 F 60.00
G1 X 2.9970 Y 1.1580 Z-0.1080 F 450.00
G1 X 3.1040 Z-0.1077
G1 X 3.1290 Y 1.1830 Z-0.1076
G1 Y 1.5360 Z-0.1077
G1 X 3.1040 Y 1.5600 Z-0.1078
G1 X 2.9970 Z-0.1081
G1 X 2.9720 Y 1.5360 Z-0.1082
G1 Y 1.1830 Z-0.1081
G1 Z 0.5019 F 3000.00
G1 X 3.8530 Y 1.4040 Z 0.5045 F 1200.00
G1 Z 0.0045 F 1500.00
G1 Z-0.1055 F 60.00
G1 X 3.8770 Y 1.4290 Z-0.1054 F 450.00
G1 Y 1.5360 Z-0.1055
G1 X 3.8530 Y 1.5600
G1 X 3.7210 Z-0.1059
G1 Y 1.4040
G1 X 3.8530 Z-0.1055
G1 Z 0.5045 F 3000.00
G1 X 4.2470 Y 1.8850 Z 0.5056 F 1200.00
G1 Z 0.0056 F 1500.00
G1 Z-0.1044 F 60.00
G1 X 4.2310 Y 1.9010 F 450.00
G1 X 4.1630 Y 1.9690 Z-0.1047
G1 X 4.1110 Y 2.0110 Z-0.1048
G1 X 4.1150 Y 2.0080
G1 X 4.1700 Z-0.1046
G1 X 4.2000 Y 1.9790 Z-0.1045
G1 X 4.2310 Y 1.9480
G1 Y 1.9010 Z-0.1044
G1 Y 1.8700
G1 X 4.2470 Y 1.8850
G1 Z 0.5056 F 3000.00
G1 X 5.3615 Y 2.3562 Z 0.5087 F 1200.00
G1 X 6.4760 Y 2.8274 Z 0.5114
G1 X 7.5905 Y 3.2986 Z 0.5144
G1 X 8.7050 Y 3.7699 Z 0.5178
G1 X 9.8195 Y 4.2411 Z 0.5215
G1 X 10.9340 Y 4.7123 Z 0.5231
G1 X 12.0485 Y 5.1835 Z 0.5235
G1 X 13.1630 Y 5.6547 Z 0.5232
G1 X 14.2775 Y 6.1259 Z 0.5230
G1 X 15.3920 Y 6.5971 Z 0.5237
G1 X 16.5065 Y 7.0684 Z 0.5262
G1 X 17.6210 Y 7.5396 Z 0.5287
G1 X 18.7355 Y 8.0108 Z 0.5313
G1 X 19.8500 Y 8.4820 Z 0.5337
G1 Z 0.0337 F 1500.00
G1 Z-0.0763 F 60.00
G1 Y 8.2960 Z-0.0760 F 450.00
G1 X 19.6640 Z-0.0765
G1 X 19.7230 Y 8.3280 Z-0.0764
G1 X 19.7750 Y 8.3710 Z-0.0763
G1 X 19.8180 Y 8.4230
G1 X 19.8500 Y 8.4820
G1 X 19.8690 Y 8.5460
G1 X 19.8760 Y 8.6130 Z-0.0764
G1 Y 8.6230
G1 Y 8.8770 Z-0.0768
G1 Y 9.1300 Z-0.0772
G1 Y 9.3840 Z-0.0776
G1 Y 9.6380 Z-0.0779
G1 Y 9.8880 Z-0.0783
G1 X 19.8690 Y 9.9550 Z-0.0784
G1 X 19.8500 Y 10.0200 Z-0.0786
G1 X 19.8180 Y 10.0790 Z-0.0787
G1 X 19.7750 Y 10.1310 Z-0.0788
G1 X 19.5180 Y 10.3880 Z-0.0796
G1 X 19.2640 Y 10.6420 Z-0.0804
G1 X 18.9320 Y 10.9740 Z-0.0813
G1 X 18.9170 Y 10.9600
G1 Z 0.5287 F 3000.00
G1 X 18.7290 Y 11.1720 Z 0.5282 F 1200.00
G1 Z 0.0282 F 1500.00
G1 Z-0.0818 F 60.00
G1 X 18.8120 Y 11.0750 Z-0.0816 F 450.00
G1 X 18.8960 Y 11.0110 Z-0.0814
G1 X 18.7320 Y 11.1740 Z-0.0818
G1 X 18.5800 Y 11.3260 Z-0.0822
G1 X 18.4900 Y 11.5450 Z-0.0824
G1 X 18.4160 Y 11.7230 Z-0.0826
G1 Y 11.9200
G1 Y 12.1740
G1 Y 12.4270
G1 Y 12.6810
G1 Y 12.8220
G1 X 18.4090 Y 12.8890
G1 X 18.3900 Y 12.9530 Z-0.0827
G1 Z 0.5273 F 3000.00
G1 X 19.4950 Z 0.5295 F 1200.00
G1 X 20.6000 Z 0.5315
G1 Z 0.0315 F 1500.00
G1 Z-0.0785 F 60.00
G1 X 20.5810 Y 12.8890 F 450.00
G1 X 20.5740 Y 12.8220
G1 Y 12.6810 Z-0.0784
G1 Y 12.5270 Z-0.0783
G1 X 20.5810 Y 12.4600
G1 X 20.6000 Y 12.3950
G1 X 20.6320 Y 12.3360 Z-0.0782
G1 X 20.6750 Y 12.2840 Z-0.0781
G1 X 20.7740 Y 12.1850 Z-0.0779
G1 X 21.0280 Y 11.9310 Z-0.0774
G1 X 21.2820 Y 11.6770 Z-0.0770
G1 X 21.5360 Y 11.4230 Z-0.0765
G1 X 21.5670 Y 11.3970
G1 X 21.7180 Y 11.2410 Z-0.0762
G1 X 21.8700 Y 11.0890 Z-0.0760
G1 X 21.8950 Y 11.0280 Z-0.0759
G1 X 22.0000 Y 10.7740 Z-0.0757
G1 X 22.0340 Y 10.6920
G1 Y 10.6520
G1 Y 10.3980 Z-0.0756
G1 Y 10.1450
G1 Y 9.8910 Z-0.0754
G1 Y 9.6380 Z-0.0750
G1 Y 9.3840 Z-0.0746
G1 Y 9.1300 Z-0.0742
G1 Y 8.8770 Z-0.0738
G1 Y 8.6130 Z-0.0734
G1 X 22.0410 Y 8.5460 Z-0.0733
G1 X 22.0600 Y 8.4820 Z-0.0732
G1 Y 8.2960 Z-0.0729
G1 X 22.2460 Z-0.0727
G1 X 22.2780 Z-0.0726
G1 Z 0.5374 F 3000.00
G1 X 23.3540 Y 8.3315 Z 0.5387 F 1200.00
G1 X 24.4300 Y 8.3670 Z 0.5400
G1 Z 0.0400 F 1500.00
G1 Z-0.0700 F 60.00
G1 X 24.9400 Z-0.0693 F 450.00
G1 Y 8.3570
G1 Y 8.2090 Z-0.0691
G1 X 24.4060 Z-0.0697
G1 Y 7.1660 Z-0.0681
G1 Y 6.1230 Z-0.0665
G1 Y 5.0800 Z-0.0649
G1 Y 4.0370 Z-0.0646
G1 Y 2.9940 Z-0.0644
G1 Y 1.9510 Z-0.0642
G1 X 25.4920 Z-0.0629
G1 X 26.5780 Z-0.0626
G1 X 27.6640 Z-0.0623
G1 Y 2.9940 Z-0.0622
G1 Y 4.0370 Z-0.0620
G1 Y 5.0800
G1 Y 6.1230 Z-0.0633
G1 Y 7.1660 Z-0.0646
G1 Y 8.2090 Z-0.0659
G1 X 27.1300 Z-0.0665
G1 Y 8.3570 Z-0.0667
G1 Y 8.3670 Z-0.0668
G1 X 27.6400 Z-0.0662
G1 X 27.6500 Y 8.3570 Z-0.0661
G1 X 27.8120 Y 8.1950 Z-0.0657
G1 Y 8.1160 Z-0.0656
G1 Y 7.8620 Z-0.0653
G1 Y 7.6090 Z-0.0650
G1 Y 7.3550 Z-0.0647
G1 Y 7.1010 Z-0.0644
G1 Y 6.8480 Z-0.0641
G1 Y 6.5940 Z-0.0638
G1 Y 6.3410 Z-0.0635
G1 Y 6.0870 Z-0.0631
G1 Y 5.8330 Z-0.0628
G1 Y 5.5800 Z-0.0625
G1 Y 5.3260 Z-0.0622
G1 Y 5.0720 Z-0.0619
G1 Y 4.8190 Z-0.0618
G1 Y 4.5650 Z-0.0619
G1 Y 4.3120
G1 Y 4.0580
G1 Y 3.8040 Z-0.0620
G1 Y 3.5510
G1 Y 3.2970 Z-0.0621
G1 Y 3.0430
G1 Y 2.7900
G1 Y 2.5360 Z-0.0622
G1 Y 2.2830
G1 Y 2.0290
G1 Y 1.9650 Z-0.0623
G1 X 27.8030 Y 1.9570
G1 X 27.6500 Y 1.8030
G1 X 26.5733 Z-0.0626
G1 X 25.4967 Z-0.0629
G1 X 24.4200 Z-0.0642
G1 X 24.2670 Y 1.9560 Z-0.0645
G1 X 24.2580 Y 1.9650 Z-0.0646
G1 Y 2.0290
G1 Y 2.2830
G1 Y 2.5360
G1 Y 2.7900 Z-0.0647
G1 Y 3.0430
G1 Y 3.2970
G1 Y 3.5510 Z-0.0648
G1 Y 3.8040
G1 Y 4.0580
G1 Y 4.3120 Z-0.0649
G1 Y 4.5650
G1 Y 4.8190
G1 Y 5.0720 Z-0.0651
G1 Y 5.3260 Z-0.0655
G1 Y 5.5800 Z-0.0659
G1 Y 5.8330 Z-0.0663
G1 Y 6.0870 Z-0.0666
G1 Y 6.3410 Z-0.0670
G1 Y 6.5940 Z-0.0674
G1 Y 6.8480 Z-0.0678
G1 Y 7.1010 Z-0.0682
G1 Y 7.3550 Z-0.0686
G1 Y 7.6090 Z-0.0690
G1 Y 7.8620 Z-0.0694
G1 Y 8.1160 Z-0.0698
G1 Y 8.1960 Z-0.0699
G1 Y 8.1950
G1 X 24.4200 Y 8.3570 Z-0.0700
G1 X 24.4300 Y 8.3670
G1 Z 0.5400 F 3000.00
G1 X 23.6603 Y 9.1477 Z 0.5378 F 1200.00
G1 X 22.8907 Y 9.9283 Z 0.5357
G1 X 22.1210 Y 10.7090 Z 0.5344
G1 Z 0.0344 F 1500.00
G1 Z-0.0756 F 60.00
G1 X 22.0800 Y 10.8070 F 450.00
G1 X 21.9750 Y 11.0620 Z-0.0758
G1 X 21.9430 Y 11.1380 Z-0.0759
G1 X 21.5970 Y 11.4840 Z-0.0765
G1 X 21.3430 Y 11.7380 Z-0.0769
G1 X 21.0890 Y 11.9920 Z-0.0774
G1 X 20.8350 Y 12.2460 Z-0.0778
G1 X 20.7360 Y 12.3450 Z-0.0780
G1 Z 0.5320 F 3000.00
G1 X 20.8350 Y 12.2460 Z 0.5322 F 1200.00
G1 Z 0.0322 F 1500.00
G1 Z-0.0778 F 60.00
G1 X 20.8030 Y 12.2850 Z-0.0779 F 450.00
G1 X 20.7940 Y 12.3040
G1 X 20.7750 Y 12.3140
G1 X 20.7360 Y 12.3450 Z-0.0780
G1 X 20.7040 Y 12.3840 Z-0.0781
G1 X 20.6800 Y 12.4290
G1 X 20.6660 Y 12.4770 Z-0.0782
G1 X 20.6610 Y 12.5270
G1 Y 12.6810 Z-0.0783
G1 Y 12.8220
G1 X 20.6660 Y 12.8720
G1 X 20.6800 Y 12.9200
G1 X 20.7040 Y 12.9640
G1 X 20.7360 Y 13.0030 Z-0.0782
G1 X 20.7750 Y 13.0350
G1 X 20.8190 Y 13.0590 Z-0.0781
G1 X 20.8670 Y 13.0730
G1 X 20.9170 Y 13.0780 Z-0.0780
G1 X 21.6100 Z-0.0768
G1 X 21.6480 Y 13.1160
G1 X 21.7720 Y 13.2400 Z-0.0766
G1 Y 13.4420
G1 Y 13.6960 Z-0.0767
G1 Y 13.9490
G1 Y 14.2030 Z-0.0768
G1 Y 14.4560
G1 Y 14.7100 Z-0.0769
G1 Y 14.9640
G1 Y 15.2170 Z-0.0770
G1 Y 15.4710 Z-0.0771
G1 Y 15.7250 Z-0.0772
G1 Y 15.9700 Z-0.0773
G1 X 21.6910 Y 16.0500 Z-0.0775
G1 X 21.6100 Y 16.1320 Z-0.0776
G1 X 21.0190 Z-0.0787
G1 X 20.9690 Y 16.1370 Z-0.0788
G1 X 20.9210 Y 16.1510 Z-0.0789
G1 X 20.8770 Y 16.1750 Z-0.0790
G1 X 20.8380 Y 16.2070 Z-0.0791
G1 X 20.8060 Y 16.2460 Z-0.0792
G1 X 20.7820 Y 16.2900
G1 X 20.7670 Y 16.3380 Z-0.0793
G1 X 20.7630 Y 16.3880
G1 Y 16.4850
G1 Y 16.7390 Z-0.0794
G1 Y 16.9930
G1 Y 17.2460 Z-0.0795
G1 Y 17.5000 Z-0.0796
G1 Y 17.7540 Z-0.0797
G1 Y 18.0070
G1 Y 18.2610 Z-0.0798
G1 Y 18.5140 Z-0.0799
G1 Y 18.7680
G1 Y 19.0220 Z-0.0800
G1 Y 19.2750 Z-0.0801
G1 Y 19.5290
G1 Y 19.7830 Z-0.0802
G1 Y 19.8380
G1 X 20.7670 Y 19.8880
G1 X 20.7820 Y 19.9360
G1 X 20.8060 Y 19.9800
G1 X 20.8380 Y 20.0190 Z-0.0801
G1 X 20.8770 Y 20.0510 Z-0.0800
G1 X 20.9210 Y 20.0740 Z-0.0799
G1 X 20.9690 Y 20.0890 Z-0.0798
G1 X 21.0190 Y 20.0940
G1 X 22.1160 Z-0.0780
G1 X 22.8625 Z-0.0769
G1 X 23.6090 Z-0.0757
G1 X 23.7320 Y 20.2170 Z-0.0755
G1 X 23.7710 Y 20.2560 Z-0.0754
G1 Y 20.2900
G1 Y 20.5430 Z-0.0753
G1 Y 20.7970
G1 Y 21.0510
G1 Y 21.3040 Z-0.0752
G1 Y 21.4210
G1 X 23.7760 Y 21.4710
G1 X 23.7910 Y 21.5190 Z-0.0751
G1 X 23.8150 Y 21.5630
G1 X 23.8470 Y 21.6020
G1 X 23.9880 Y 21.7430 Z-0.0749
G1 X 24.0560 Y 21.9080 Z-0.0748
G1 X 24.0770 Y 21.9570
G1 Z 0.5352 F 3000.00
G1 X 23.9980 Y 21.9940 Z 0.5351 F 1200.00
G1 Z 0.0351 F 1500.00
G1 Z-0.0749 F 60.00
G1 X 23.9900 Y 21.9740 F 450.00
G1 X 23.9980 Y 21.9940
G1 X 23.9150 Y 21.7930 Z-0.0750
G1 X 23.8940 Y 21.7410
G1 X 23.9150 Y 21.7930
G1 Z 0.5350 F 3000.00
G1 X 24.0770 Y 22.0650 Z 0.5352 F 1200.00
G1 Z 0.0352 F 1500.00
G1 Z-0.0748 F 60.00
G1 X 24.0900 Y 21.9880 F 450.00
G1 X 24.0770 Y 21.9570
G1 Y 22.0650
G1 Y 22.3190
G1 Y 22.5720 Z-0.0747
G1 Y 22.8260
G1 Y 23.0800
G1 X 24.0780 Y 23.1980
G1 X 24.0770 Y 23.2150
G1 X 24.0850 Y 23.2650
G1 X 24.1030 Y 23.3120
G1 X 24.1300 Y 23.3550
G1 X 24.1640 Y 23.3910 Z-0.0746
G1 X 24.2050 Y 23.4200
G1 X 24.2510 Y 23.4410
G1 X 24.3000 Y 23.4530
G1 X 24.3500 Y 23.4540
G1 X 24.4000 Y 23.4460 Z-0.0745
G1 X 24.4430 Y 23.4340
G1 X 24.4850
G1 Y 23.4760
G1 X 24.3360 Z-0.0746
G1 Y 24.7050
G1 Y 25.9340 Z-0.0742
G1 X 25.1940 Z-0.0737
G1 Y 24.7050 Z-0.0742
G1 Y 23.4760 Z-0.0740
G1 Y 23.4820
G1 X 25.2260 Y 23.4990
G1 X 25.2740 Y 23.5130 Z-0.0739
G1 X 25.3240 Y 23.5180 Z-0.0738
G1 X 25.3740 Y 23.5130
G1 X 25.4220 Y 23.4990 Z-0.0737
G1 X 25.4670 Y 23.4750
G1 X 25.5050 Y 23.4430 Z-0.0736
G1 X 25.6200 Y 23.3280 Z-0.0735
G1 X 26.4670 Z-0.0724
G1 X 26.5170 Y 23.3230
G1 X 26.5650 Y 23.3090 Z-0.0723
G1 X 26.6090 Y 23.2850
G1 X 26.6480 Y 23.2530 Z-0.0722
G1 X 26.6800 Y 23.2140
G1 X 26.7040 Y 23.1700
G1 X 26.7180 Y 23.1220
G1 X 26.7230 Y 23.0720
G1 Y 23.0620
G1 X 26.7800 Y 22.9250
G1 X 26.8120 Y 22.8480
G1 X 26.9070 Y 22.7520 Z-0.0721
G1 X 27.1600 Y 22.5000 Z-0.0719
G1 X 27.4110 Y 22.2490 Z-0.0718
G1 X 27.6110 Y 22.0490
G1 X 27.8240 Y 21.9610 Z-0.0717
G1 X 28.4100 Z-0.0712
G1 X 28.4600 Y 21.9560 Z-0.0711
G1 X 28.5080 Y 21.9410
G1 X 28.5530 Y 21.9180
G1 X 28.5910 Y 21.8860
G1 X 28.6230 Y 21.8470
G1 X 28.6470 Y 21.8020
G1 X 28.6620 Y 21.7540 Z-0.0712
G1 X 28.6670 Y 21.7040
G1 Y 21.5580 Z-0.0713
G1 Y 21.4760 Z-0.0714
G1 X 28.8290 Y 21.3140 Z-0.0715
G1 X 29.8450 Z-0.0709
G1 X 30.8610 Z-0.0697
G1 X 31.0230 Y 21.4760 Z-0.0694
G1 Y 21.5580
G1 Y 21.8110 Z-0.0692
G1 Y 22.0650 Z-0.0690
G1 Y 22.3190 Z-0.0688
G1 Y 22.5720 Z-0.0687
G1 Y 22.8260 Z-0.0685
G1 Y 23.0800 Z-0.0683
G1 Y 23.3250 Z-0.0681
G1 X 31.0140 Y 23.3420
G1 X 31.0000 Y 23.3900
G1 X 30.9950 Y 23.4400
G1 Y 23.5870 Z-0.0680
G1 Y 23.8400 Z-0.0678
G1 Y 24.0940 Z-0.0676
G1 Y 24.1850 Z-0.0675
G1 X 31.0000 Y 24.2350
G1 X 31.0140 Y 24.2830
G1 X 31.0230 Y 24.3000
G1 Y 24.3480 Z-0.0674
G1 Y 24.5620 Z-0.0673
G1 X 31.0280 Y 24.6120
G1 X 31.0430 Y 24.6600 Z-0.0672
G1 X 31.0670 Y 24.7040
G1 X 31.0980 Y 24.7430
G1 X 31.1370 Y 24.7750 Z-0.0673
G1 X 31.1820 Y 24.7990
G1 X 31.2300 Y 24.8130
G1 X 31.2800 Y 24.8180 Z-0.0674
G1 X 31.3740
G1 X 31.4240 Y 24.8130 Z-0.0675
G1 X 31.4720 Y 24.7990
G1 X 31.5170 Y 24.7750 Z-0.0676
G1 X 31.5550 Y 24.7430
G1 X 31.5870 Y 24.7040 Z-0.0677
G1 X 31.6110 Y 24.6600
G1 X 31.6260 Y 24.6120
G1 X 31.6310 Y 24.5620 Z-0.0678
G1 Y 24.3620
G1 X 31.6720 Z-0.0679
G1 Y 24.9080 Z-0.0677
G1 X 32.7025 Z-0.0687
G1 X 33.7330 Z-0.0697
G1 Y 24.3620 Z-0.0692
G1 X 33.7740
G1 Y 24.5620 Z-0.0694
G1 X 33.7790 Y 24.6120 Z-0.0695
G1 X 33.7940 Y 24.6600
G1 X 33.8180 Y 24.7040 Z-0.0696
G1 X 33.8500 Y 24.7430 Z-0.0697
G1 X 33.8880 Y 24.7750
G1 X 33.9330 Y 24.7990 Z-0.0698
G1 X 33.9810 Y 24.8130 Z-0.0699
G1 X 34.0310 Y 24.8180
G1 X 34.6910 Z-0.0705
G1 X 34.7410 Y 24.8130 Z-0.0706
G1 X 34.7670 Y 24.8060
G1 X 35.5635 Y 24.8055 Z-0.0695
G1 X 36.3600 Y 24.8050 Z-0.0678
G1 X 36.4020 Y 24.8020 Z-0.0677
G1 X 36.4500 Y 24.7890 Z-0.0676
G1 X 36.4960 Y 24.7670 Z-0.0674
G1 X 37.2300 Y 24.3080 Z-0.0655
G1 X 37.5500 Y 24.1070 Z-0.0648
G1 X 37.5570 Y 24.1030
G1 X 37.5960 Y 24.0710 Z-0.0647
G1 X 37.6270 Y 24.0320 Z-0.0646
G1 X 37.6510 Y 23.9880
G1 X 37.6660 Y 23.9400 Z-0.0645
G1 X 37.6710 Y 23.8900
G1 Y 23.8400 Z-0.0644
G1 Y 23.5870 Z-0.0643
G1 Y 23.3330 Z-0.0642
G1 Y 23.0800 Z-0.0641
G1 Y 22.8260 Z-0.0640
G1 Y 22.5720 Z-0.0639
G1 Y 22.3190 Z-0.0637
G1 Y 22.0650 Z-0.0636
G1 Y 21.8110 Z-0.0635
G1 Y 21.5580 Z-0.0634
G1 Y 21.3040 Z-0.0633
G1 Y 21.0510 Z-0.0631
G1 Y 20.7970 Z-0.0630
G1 Y 20.5430 Z-0.0629
G1 Y 20.2900 Z-0.0628
G1 Y 20.0360 Z-0.0627
G1 Y 19.7830
G1 Y 19.5290
G1 Y 19.2750
G1 Y 19.0220 Z-0.0628
G1 Y 18.7680
G1 Y 18.5140
G1 Y 18.2610
G1 Y 18.0070 Z-0.0629
G1 Y 17.7540
G1 Y 17.5000
G1 Y 17.2460
G1 Y 16.9930 Z-0.0630
G1 Y 16.7390
G1 Y 16.4850
G1 Y 16.2320 Z-0.0631
G1 Y 15.9780
G1 Y 15.7250
G1 Y 15.4710
G1 Y 15.2170 Z-0.0632
G1 Y 14.9640
G1 Y 14.7100 Z-0.0635
G1 Y 14.4560 Z-0.0637
G1 Y 14.2030 Z-0.0639
G1 Y 13.9490 Z-0.0642
G1 Y 13.6960 Z-0.0644
G1 Y 13.4420 Z-0.0647
G1 Y 13.2500 Z-0.0649
G1 X 37.7360 Y 13.0920
G1 X 37.8570 Y 12.9710
G1 X 37.9860 Y 12.9180 Z-0.0648
G1 X 38.0150 Y 12.9060
G1 X 38.8385 Z-0.0638
G1 X 39.6620 Z-0.0628
G1 X 39.7120 Y 12.9010 Z-0.0627
G1 X 39.7600 Y 12.8860
G1 X 39.8040 Y 12.8620
G1 X 39.8430 Y 12.8310
G1 X 39.8750 Y 12.7920
G1 X 39.8990 Y 12.7470
G1 X 39.9130 Y 12.6990 Z-0.0628
G1 X 39.9180 Y 12.6490
G1 Y 12.4270 Z-0.0631
G1 Y 12.3670 Z-0.0632
G1 X 39.9130 Y 12.3170 Z-0.0633
G1 X 39.8990 Y 12.2690 Z-0.0634
G1 X 39.8750 Y 12.2250
G1 X 39.8430 Y 12.1860 Z-0.0635
G1 X 39.6500 Y 11.9930 Z-0.0640
G1 X 39.3960 Y 11.7390 Z-0.0646
G1 X 39.1650 Y 11.5070 Z-0.0651
G1 X 39.1430 Y 11.4850 Z-0.0652
G1 X 38.8890 Y 11.2320 Z-0.0657
G1 X 38.6940 Y 11.0360 Z-0.0661
G1 X 38.5990 Y 10.8080 Z-0.0664
G1 X 38.4930 Y 10.5530 Z-0.0668
G1 X 38.4580 Y 10.4680 Z-0.0669
G1 Y 10.3980 Z-0.0670
G1 Y 10.1450 Z-0.0673
G1 Y 9.8910
G1 Y 9.6380 Z-0.0668
G1 Y 9.3840 Z-0.0664
G1 Y 9.1300 Z-0.0660
G1 Y 8.8770 Z-0.0655
G1 Y 8.6230 Z-0.0651
G1 Y 8.5310 Z-0.0649
G1 X 38.4530 Y 8.4810
G1 X 38.4380 Y 8.4330 Z-0.0648
G1 X 38.4150 Y 8.3880 Z-0.0647
G1 X 38.3830 Y 8.3490
G1 X 38.2280 Y 8.1950 Z-0.0645
G1 Y 8.1160 Z-0.0644
G1 Y 7.8620 Z-0.0640
G1 Y 7.6090 Z-0.0635
G1 Y 7.3550 Z-0.0631
G1 Y 7.1010 Z-0.0627
G1 Y 6.8480 Z-0.0622
G1 Y 6.5940 Z-0.0618
G1 Y 6.3410 Z-0.0614
G1 Y 6.0870 Z-0.0609
G1 Y 5.8330 Z-0.0605
G1 Y 5.5800 Z-0.0601
G1 Y 5.3260 Z-0.0596
G1 Y 5.0720 Z-0.0592
G1 Y 4.8190 Z-0.0591
G1 Y 4.5650
G1 Y 4.3120 Z-0.0592
G1 Y 4.0580
G1 Y 3.8040 Z-0.0593
G1 Y 3.5510
G1 Y 3.2970
G1 Y 3.0430 Z-0.0594
G1 Y 2.7900
G1 Y 2.5360
G1 Y 2.2830 Z-0.0595
G1 Y 2.0290
G1 Y 1.9650
G1 X 38.2370 Y 1.9560
G1 X 38.3900 Y 1.8030
G1 X 39.4667 Z-0.0589
G1 X 40.5433 Z-0.0582
G1 X 41.6200 Z-0.0574
G1 X 41.7730 Y 1.9570 Z-0.0573
G1 X 41.7820 Y 1.9650
G1 Y 2.0290
G1 Y 2.2830
G1 Y 2.5360
G1 Y 2.7900
G1 Y 3.0430 Z-0.0572
G1 Y 3.2970
G1 Y 3.5510
G1 Y 3.8040
G1 Y 4.0580
G1 Y 4.3120
G1 Y 4.5650
G1 Y 4.8190
G1 Y 5.0720 Z-0.0573
G1 Y 5.3260 Z-0.0576
G1 Y 5.5800 Z-0.0580
G1 Y 5.8330 Z-0.0584
G1 Y 6.0870 Z-0.0587
G1 Y 6.3410 Z-0.0591
G1 Y 6.5940 Z-0.0595
G1 Y 6.8480 Z-0.0598
G1 Y 7.1010 Z-0.0602
G1 Y 7.3550 Z-0.0605
G1 Y 7.6090 Z-0.0609
G1 Y 7.8620 Z-0.0613
G1 Y 8.1160 Z-0.0616
G1 Y 8.1950 Z-0.0618
G1 X 41.6270 Y 8.3490 Z-0.0621
G1 X 41.5950 Y 8.3880 Z-0.0622
G1 X 41.5710 Y 8.4330 Z-0.0623
G1 X 41.5570 Y 8.4810 Z-0.0624
G1 X 41.5520 Y 8.5310
G1 Y 8.6230 Z-0.0626
G1 Y 8.8770 Z-0.0630
G1 Y 9.1300 Z-0.0633
G1 Y 9.3840 Z-0.0637
G1 Y 9.4130
G1 X 41.5570 Y 9.4630 Z-0.0638
G1 X 41.5710 Y 9.5110 Z-0.0639
G1 X 41.5950 Y 9.5550
G1 X 41.6270 Y 9.5940
G1 X 41.8520 Y 9.8190 Z-0.0640
G1 X 42.1050 Y 10.0730 Z-0.0639
G1 X 42.3590 Y 10.3260 Z-0.0635
G1 X 42.6130 Y 10.5800 Z-0.0630
G1 X 42.7760 Y 10.7440 Z-0.0628
G1 X 42.8840 Y 11.0040 Z-0.0625
G1 X 43.0120 Y 11.3120 Z-0.0622
G1 X 43.0240 Y 11.3410
G1 X 43.0170 Y 11.3630
G1 X 43.0120 Y 11.4130
G1 Z 0.5478 F 3000.00
G1 Y 11.3120 F 1200.00
G1 Z 0.0478 F 1500.00
G1 Z-0.0622 F 60.00
G1 Y 11.4130 F 450.00
G1 Y 11.6670 Z-0.0620
G1 Y 11.9200 Z-0.0619
G1 Y 12.1740 Z-0.0618
G1 Y 12.4270 Z-0.0616
G1 Y 12.6490 Z-0.0615
G1 X 43.0170 Y 12.6990
G1 X 43.0310 Y 12.7470
G1 X 43.0550 Y 12.7920 Z-0.0614
G1 X 43.0870 Y 12.8310
G1 X 43.1260 Y 12.8620
G1 X 43.1700 Y 12.8860 Z-0.0613
G1 X 43.2180 Y 12.9010
G1 X 43.2680 Y 12.9060
G1 X 44.3785 Z-0.0609
G1 X 45.4890 Z-0.0611
G1 X 46.5995 Z-0.0619
G1 X 47.7100 Z-0.0627
G1 X 47.7420 Y 12.9190
G1 X 47.8560 Y 12.9660 Z-0.0628
G1 X 47.9040 Y 12.9800
G1 X 47.9540 Y 12.9850
G1 X 48.0040 Y 12.9800 Z-0.0629
G1 X 48.0520 Y 12.9660
G1 X 48.0970 Y 12.9420 Z-0.0630
G1 X 48.1360 Y 12.9100
G1 X 48.1830 Y 12.8630 Z-0.0631
G1 X 48.3200 Y 12.7260 Z-0.0634
G1 X 49.4520 Z-0.0643
G1 X 50.5840 Z-0.0649
G1 X 51.7160 Z-0.0652
G1 X 52.8480 Z-0.0656
G1 X 52.8980 Y 12.7210
G1 X 52.9460 Y 12.7060
G1 X 52.9900 Y 12.6820
G1 X 53.0290 Y 12.6500 Z-0.0657
G1 X 53.0610 Y 12.6120
G1 X 53.0850 Y 12.5670
G1 X 53.0990 Y 12.5190
G1 X 53.1040 Y 12.4690 Z-0.0658
G1 Y 12.4270
G1 Y 12.1740 Z-0.0659
G1 Y 11.9200 Z-0.0660
G1 Y 11.9110
G1 X 53.0990 Y 11.8610
G1 X 53.0850 Y 11.8130
G1 X 53.0610 Y 11.7680
G1 X 53.0290 Y 11.7290 Z-0.0661
G1 X 52.9900 Y 11.6980
G1 X 52.9460 Y 11.6740
G1 X 52.8980 Y 11.6590
G1 X 52.8750 Y 11.6570
G1 X 52.7110 Y 11.4920 Z-0.0662
G1 Y 11.4130 Z-0.0663
G1 Y 11.1590 Z-0.0664
G1 Y 10.9060 Z-0.0666
G1 Y 10.6520 Z-0.0667
G1 Y 10.3980 Z-0.0669
G1 Y 10.1450 Z-0.0670
G1 Y 9.8910
G1 Y 9.6380 Z-0.0667
G1 Y 9.4630 Z-0.0665
G1 X 52.8620 Y 9.3120 Z-0.0662
G1 X 52.8730 Y 9.3010
G1 X 53.0350 Z-0.0660
G1 X 53.0850 Y 9.2960
G1 X 53.1330 Y 9.2810 Z-0.0659
G1 X 53.1780 Y 9.2570
G1 X 53.2170 Y 9.2260 Z-0.0658
G1 X 53.2480 Y 9.1870 Z-0.0657
G1 X 53.2720 Y 9.1420
G1 X 53.2870 Y 9.0940 Z-0.0656
G1 X 53.2920 Y 9.0440 Z-0.0655
G1 Y 8.8770 Z-0.0653
G1 Y 8.6230 Z-0.0651
G1 Y 8.6130 Z-0.0650
G1 X 53.2870 Y 8.5630
G1 X 53.2720 Y 8.5150
G1 X 53.2480 Y 8.4710 Z-0.0649
G1 X 53.2170 Y 8.4320
G1 X 53.1780 Y 8.4000
G1 X 53.1330 Y 8.3760
G1 X 53.0850 Y 8.3620
G1 X 53.0350 Y 8.3570 Z-0.0650
G1 X 52.3600 Z-0.0655
G1 X 52.1980 Y 8.1950
G1 Y 8.1160 Z-0.0654
G1 Y 7.8620 Z-0.0651
G1 Y 7.6090 Z-0.0648
G1 Y 7.3550 Z-0.0646
G1 Y 7.1010 Z-0.0643
G1 Y 6.8480 Z-0.0640
G1 Y 6.5940 Z-0.0637
G1 Y 6.3410 Z-0.0634
G1 Y 6.0870 Z-0.0631
G1 Y 5.8330 Z-0.0628
G1 Y 5.5800 Z-0.0626
G1 Y 5.3260 Z-0.0623
G1 Y 5.0720 Z-0.0620
G1 Y 4.8190 Z-0.0618
G1 Y 4.5650 Z-0.0616
G1 Y 4.3120 Z-0.0614
G1 Y 4.0580 Z-0.0613
G1 Y 3.8040 Z-0.0611
G1 Y 3.5510 Z-0.0609
G1 Y 3.2970 Z-0.0608
G1 Y 3.0430 Z-0.0606
G1 Y 2.7900 Z-0.0604
G1 Y 2.5360 Z-0.0602
G1 Y 2.2830 Z-0.0601
G1 Y 2.0290 Z-0.0599
G1 Y 1.9650
G1 X 52.2070 Y 1.9560
G1 X 52.3600 Y 1.8030
G1 X 53.4367 Z-0.0606
G1 X 54.5133 Z-0.0613
G1 X 55.5900 Z-0.0618
G1 X 55.7430 Y 1.9570 Z-0.0617
G1 X 55.7520 Y 1.9650
G1 Y 2.0290
G1 Y 2.2830 Z-0.0616
G1 Y 2.5360
G1 Y 2.7900 Z-0.0615
G1 Y 3.0430 Z-0.0614
G1 Y 3.2970 Z-0.0613
G1 Y 3.5510 Z-0.0612
G1 Y 3.8040 Z-0.0611
G1 Y 4.0580
G1 Y 4.3120 Z-0.0610
G1 Y 4.5650 Z-0.0609
G1 Y 4.8190 Z-0.0608
G1 Y 5.0720
G1 Y 5.3260 Z-0.0611
G1 Y 5.5800 Z-0.0614
G1 Y 5.8330 Z-0.0617
G1 Y 6.0870 Z-0.0619
G1 Y 6.3410 Z-0.0622
G1 Y 6.5940 Z-0.0625
G1 Y 6.8480 Z-0.0628
G1 Y 7.1010 Z-0.0630
G1 Y 7.3550 Z-0.0633
G1 Y 7.6090 Z-0.0636
G1 Y 7.8620 Z-0.0639
G1 Y 8.1160 Z-0.0642
G1 Y 8.1950
G1 X 55.5900 Y 8.3570
G1 X 54.9150 Z-0.0634
G1 X 54.8650 Y 8.3620
G1 X 54.8170 Y 8.3760 Z-0.0635
G1 X 54.7720 Y 8.4000 Z-0.0636
G1 X 54.7330 Y 8.4320
G1 X 54.7020 Y 8.4710 Z-0.0637
G1 X 54.6780 Y 8.5150 Z-0.0638
G1 X 54.6630 Y 8.5630
G1 X 54.6580 Y 8.6130 Z-0.0639
G1 Y 8.6230
G1 Y 8.8770 Z-0.0642
G1 Y 9.1300 Z-0.0645
G1 Y 9.1500
G1 X 54.6630 Y 9.2000
G1 X 54.6780 Y 9.2480 Z-0.0646
G1 X 54.7010 Y 9.2930
G1 X 54.7330 Y 9.3320
G1 X 54.8640 Y 9.4630
G1 Y 9.6380 Z-0.0648
G1 Y 9.8910 Z-0.0651
G1 Y 10.1450 Z-0.0653
G1 Y 10.3980 Z-0.0654
G1 Y 10.6520 Z-0.0655
G1 Y 10.9060 Z-0.0656
G1 Y 11.1590
G1 Y 11.4130 Z-0.0657
G1 Y 11.4920 Z-0.0658
G1 X 54.6990 Y 11.6570
G1 X 54.6770 Y 11.6590
G1 X 54.6290 Y 11.6740 Z-0.0659
G1 X 54.5850 Y 11.6980
G1 X 54.5460 Y 11.7290
G1 X 54.5140 Y 11.7680
G1 X 54.4900 Y 11.8130
G1 X 54.4760 Y 11.8610
G1 X 54.4710 Y 11.9110
G1 Y 11.9200
G1 Y 12.1740 Z-0.0660
G1 Y 12.4270
G1 Y 12.5400
G1 X 54.4760 Y 12.5910 Z-0.0661
G1 X 54.4900 Y 12.6390
G1 X 54.5140 Y 12.6830
G1 X 54.5460 Y 12.7220
G1 X 54.6880 Y 12.8640 Z-0.0662
G1 X 54.7120 Y 12.8880
G1 Y 12.9350
G1 Y 13.1880 Z-0.0663
G1 Y 13.4420 Z-0.0664
G1 Y 13.6960
G1 Y 13.9490 Z-0.0665
G1 Y 14.2030 Z-0.0666
G1 Y 14.4560 Z-0.0667
G1 Y 14.7100
G1 Y 14.9640 Z-0.0668
G1 Y 15.2170 Z-0.0671
G1 Y 15.4710 Z-0.0674
G1 Y 15.7250 Z-0.0677
G1 Y 15.9780 Z-0.0680
G1 Y 16.2320 Z-0.0683
G1 Y 16.4850 Z-0.0686
G1 Y 16.7390 Z-0.0689
G1 Y 16.9930 Z-0.0692
G1 Y 17.2460 Z-0.0695
G1 Y 17.5000 Z-0.0698
G1 Y 17.7540 Z-0.0701
G1 Y 18.0070 Z-0.0704
G1 Y 18.1170 Z-0.0705
G1 X 54.5500 Y 18.2790
G1 X 53.4815 Z-0.0689
G1 X 52.4130 Z-0.0674
G1 X 52.3630 Y 18.2840 Z-0.0673
G1 X 52.3150 Y 18.2990 Z-0.0672
G1 X 52.2710 Y 18.3230
G1 X 52.2320 Y 18.3550
G1 X 52.0950 Y 18.4910 Z-0.0671
G1 X 52.0720 Y 18.5140
G1 X 52.0470 Y 18.5170
G1 X 51.9990 Y 18.5310 Z-0.0670
G1 Z 0.5430 F 3000.00
G1 X 52.0950 Y 18.4910 Z 0.5429 F 1200.00
G1 Z 0.0429 F 1500.00
G1 Z-0.0671 F 60.00
G1 X 51.9990 Y 18.5310 Z-0.0670 F 450.00
G1 X 51.6670 Y 18.6680 Z-0.0667
G1 X 51.2030 Z-0.0660
G1 X 50.8720 Y 18.5310 Z-0.0653
G1 X 50.7750 Y 18.4910 Z-0.0652
G1 X 50.6380 Y 18.3550 Z-0.0648
G1 X 50.5990 Y 18.3230 Z-0.0647
G1 X 50.5550 Y 18.2990 Z-0.0646
G1 X 50.5070 Y 18.2840
G1 X 50.4570 Y 18.2790 Z-0.0645
G1 X 49.3840 Z-0.0636
G1 X 48.3110 Z-0.0631
G1 X 48.2610 Y 18.2840
G1 X 48.2130 Y 18.2990
G1 X 48.1680 Y 18.3230
G1 X 48.1290 Y 18.3550
G1 X 48.0980 Y 18.3930
G1 X 48.0740 Y 18.4380
G1 X 48.0590 Y 18.4860 Z-0.0632
G1 X 48.0540 Y 18.5360
G1 Y 18.7680 Z-0.0634
G1 Y 19.0220 Z-0.0635
G1 Y 19.2750 Z-0.0637
G1 Y 19.5290 Z-0.0639
G1 Y 19.7830 Z-0.0641
G1 Y 20.0360 Z-0.0642
G1 Y 20.2900 Z-0.0641
G1 Y 20.5430 Z-0.0640
G1 Y 20.7970
G1 Y 21.0510 Z-0.0639
G1 Y 21.3040 Z-0.0638
G1 Y 21.4690
G1 X 48.0590 Y 21.5190
G1 X 48.0740 Y 21.5670
G1 X 48.0980 Y 21.6120
G1 X 48.1290 Y 21.6500
G1 X 48.1680 Y 21.6820
G1 X 48.2130 Y 21.7060
G1 X 48.2610 Y 21.7210
G1 X 48.3110 Y 21.7260
G1 X 49.3840 Z-0.0643
G1 X 50.4570 Z-0.0654
G1 X 50.5070 Y 21.7210
G1 X 50.5550 Y 21.7060 Z-0.0655
G1 X 50.5990 Y 21.6820 Z-0.0656
G1 X 50.6380 Y 21.6500 Z-0.0657
G1 X 50.7750 Y 21.5140 Z-0.0660
G1 X 51.2030 Y 21.3370 Z-0.0668
G1 X 51.6670 Z-0.0675
G1 X 52.0950 Y 21.5140 Z-0.0682
G1 X 52.2320 Y 21.6500 Z-0.0683
G1 X 52.2710 Y 21.6820 Z-0.0684
G1 X 52.3150 Y 21.7060 Z-0.0685
G1 X 52.3630 Y 21.7210
G1 X 52.4130 Y 21.7260 Z-0.0686
G1 X 53.4815 Z-0.0704
G1 X 54.5500 Z-0.0722
G1 X 54.5630 Y 21.7390
G1 X 54.7120 Y 21.8880 Z-0.0724
G1 Y 22.0650
G1 Y 22.3190
G1 Y 22.5720 Z-0.0723
G1 Y 22.8260
G1 Y 23.0800 Z-0.0722
G1 Y 23.3330
G1 Y 23.5870 Z-0.0721
G1 Y 23.8400
G1 Y 24.0940 Z-0.0720
G1 Y 24.3480
G1 Y 24.6010 Z-0.0719
G1 Y 24.8550
G1 Y 25.1090 Z-0.0718
G1 Y 25.3620 Z-0.0717
G1 Y 25.6160 Z-0.0716
G1 Y 25.8690 Z-0.0715
G1 Y 26.1230 Z-0.0713
G1 Y 26.3770 Z-0.0712
G1 Y 26.6300 Z-0.0711
G1 Y 26.8840 Z-0.0710
G1 Y 27.1170 Z-0.0709
G1 X 54.6190 Y 27.2100 Z-0.0707
G1 X 54.4790 Y 27.3500 Z-0.0706
G1 X 54.4480 Y 27.3890
G1 X 54.4240 Y 27.4330 Z-0.0705
G1 X 54.4090 Y 27.4810
G1 X 54.4040 Y 27.5310
G1 Y 27.6450 Z-0.0704
G1 Y 27.8980
G1 Y 28.1520 Z-0.0703
G1 Y 28.4060 Z-0.0702
G1 Y 28.6590 Z-0.0701
G1 Y 28.9130 Z-0.0700
G1 Y 29.1670
G1 Y 29.4200 Z-0.0699
G1 Y 29.6740 Z-0.0698
G1 Y 29.9270 Z-0.0697
G1 Y 30.1810 Z-0.0696
G1 Y 30.4350 Z-0.0695
G1 Y 30.6880 Z-0.0694
G1 Y 30.9420 Z-0.0693
G1 Y 31.1960 Z-0.0692
G1 Y 31.4490 Z-0.0691
G1 Y 31.7030 Z-0.0690
G1 Y 31.9560 Z-0.0689
G1 Y 32.2100 Z-0.0687
G1 Y 32.4630 Z-0.0686
G1 Y 32.7170 Z-0.0685
G1 Y 32.9710 Z-0.0684
G1 Y 33.2240 Z-0.0683
G1 Y 33.4780 Z-0.0682
G1 Y 33.7320 Z-0.0681
G1 Y 33.9850 Z-0.0680
G1 Y 34.0580
G1 X 54.3700 Y 34.1410 Z-0.0679
G1 X 54.3390 Y 34.2160 Z-0.0678
G1 X 54.2180 Y 34.3360 Z-0.0676
G1 X 54.0600 Y 34.4020 Z-0.0674
G1 X 52.8665 Z-0.0658
G1 X 51.6731 Z-0.0643
G1 X 50.4796 Z-0.0627
G1 X 49.2862 Z-0.0623
G1 X 48.0927 Z-0.0625
G1 X 46.8992 Z-0.0628
G1 X 45.7058 Z-0.0630
G1 X 44.5123 Z-0.0623
G1 X 43.3188 Z-0.0604
G1 X 42.1254 Z-0.0584
G1 X 40.9319 Z-0.0564
G1 X 39.7385 Z-0.0550
G1 X 38.5450 Z-0.0560
G1 X 38.4950 Y 34.4070 Z-0.0561
G1 X 38.4770 Y 34.4120
G1 X 38.4090 Y 34.4020
G1 X 38.3270 Z-0.0562
G1 X 38.2450 Y 34.3660 Z-0.0563
G1 X 38.1270 Y 34.3130 Z-0.0565
G1 X 37.9980 Y 34.2560 Z-0.0567
G1 X 37.4270 Y 34.0020 Z-0.0574
G1 X 36.8570 Y 33.7490 Z-0.0581
G1 X 36.2860 Y 33.4950 Z-0.0588
G1 X 35.8550 Y 33.3040 Z-0.0593
G1 X 35.8070 Y 33.2890
G1 X 35.7570 Y 33.2840
G1 X 34.5659 Z-0.0604
G1 X 33.3747 Z-0.0621
G1 X 32.1836 Z-0.0638
G1 X 30.9925 Z-0.0655
G1 X 29.8014 Z-0.0670
G1 X 28.6103 Z-0.0676
G1 X 27.4191 Z-0.0683
G1 X 26.2280 Z-0.0689
G1 X 26.1780 Y 33.2890
G1 X 26.1300 Y 33.3040
G1 X 26.0860 Y 33.3270
G1 X 26.0470 Y 33.3590
G1 X 26.0150 Y 33.3980
G1 X 25.9910 Y 33.4430
G1 X 25.9770 Y 33.4910 Z-0.0688
G1 X 25.9720 Y 33.5410
G1 Y 33.7320 Z-0.0686
G1 Y 33.9850 Z-0.0684
G1 Y 34.0350 Z-0.0683
G1 X 25.8100 Y 34.1970
G1 X 24.8420 Z-0.0693
G1 X 23.8740 Z-0.0707
G1 X 23.1160 Z-0.0717
G1 X 22.1480 Z-0.0731
G1 X 21.1800 Z-0.0745
G1 X 21.0180 Y 34.0350 Z-0.0749
G1 Y 33.9850 Z-0.0750
G1 Y 33.7320 Z-0.0754
G1 Y 33.4780 Z-0.0758
G1 Y 33.2240 Z-0.0763
G1 Y 32.9710 Z-0.0767
G1 Y 32.7170 Z-0.0771
G1 Y 32.4630 Z-0.0775
G1 Y 32.2100 Z-0.0779
G1 Y 32.0050 Z-0.0782
G1 X 21.1390 Y 31.8840
G1 X 21.1800 Y 31.8430 Z-0.0781
G1 X 21.3870 Z-0.0777
G1 X 21.4370 Y 31.8380 Z-0.0776
G1 X 21.4850 Y 31.8240 Z-0.0775
G1 X 21.5290 Y 31.8000
G1 X 21.5680 Y 31.7680 Z-0.0774
G1 X 21.6000 Y 31.7290
G1 X 21.6240 Y 31.6850
G1 X 21.6380 Y 31.6370 Z-0.0775
G1 X 21.6430 Y 31.5870
G1 Y 31.5380 Z-0.0776
G1 X 21.6380 Y 31.4880 Z-0.0777
G1 X 21.6240 Y 31.4400 Z-0.0778
G1 X 21.6000 Y 31.3960 Z-0.0779
G1 X 21.5680 Y 31.3570 Z-0.0780
G1 X 21.5290 Y 31.3250 Z-0.0782
G1 X 21.4850 Y 31.3010 Z-0.0783
G1 X 21.4370 Y 31.2870 Z-0.0784
G1 X 21.3870 Y 31.2820 Z-0.0786
G1 X 20.5330 Z-0.0805
G1 X 20.5010 Y 31.2430 Z-0.0806
G1 X 20.4620 Y 31.2110 Z-0.0807
G1 X 20.4180 Y 31.1870 Z-0.0809
G1 X 20.3700 Y 31.1730 Z-0.0810
G1 X 20.3200 Y 31.1680 Z-0.0811
G1 X 20.2700 Y 31.1730 Z-0.0812
G1 X 20.2220 Y 31.1870 Z-0.0813
G1 X 20.1780 Y 31.2110 Z-0.0814
G1 X 20.1390 Y 31.2430
G1 X 20.1130 Y 31.2690
G1 X 20.1000 Y 31.2820
G1 X 19.2700 Z-0.0835
G1 X 19.2550 Y 31.2670 Z-0.0836
G1 X 19.1080 Y 31.1200 Z-0.0842
G1 Y 30.9420 Z-0.0845
G1 Y 30.6880 Z-0.0850
G1 Y 30.4350 Z-0.0855
G1 Y 30.1810 Z-0.0860
G1 Y 29.9270 Z-0.0862
G1 Y 29.6740 Z-0.0858
G1 Y 29.4200 Z-0.0853
G1 Y 29.1670 Z-0.0848
G1 Y 28.9130 Z-0.0844
G1 Y 28.7780 Z-0.0841
G1 X 19.1030 Y 28.7280 Z-0.0840
G1 X 19.0890 Y 28.6800
G1 X 19.0650 Y 28.6360
G1 X 19.0330 Y 28.5970
G1 X 18.9940 Y 28.5650
G1 X 18.9500 Y 28.5410 Z-0.0841
G1 X 18.9020 Y 28.5270 Z-0.0842
G1 X 18.8520 Y 28.5220 Z-0.0843
G1 X 17.8100 Z-0.0872
G1 X 17.7600 Y 28.5270 Z-0.0873
G1 X 17.7120 Y 28.5410 Z-0.0875
G1 X 17.6670 Y 28.5650 Z-0.0876
G1 X 17.6280 Y 28.5970 Z-0.0878
G1 X 17.4940 Y 28.7310 Z-0.0884
G1 X 17.2400 Y 28.9850 Z-0.0895
G1 X 16.9860 Y 29.2390 Z-0.0906
G1 X 16.7330 Y 29.4930 Z-0.0917
G1 X 16.5220 Y 29.7030 Z-0.0925
G1 X 16.3080 Y 29.7920 Z-0.0932
G1 X 15.4550 Z-0.0955
G1 X 15.4050 Y 29.7970 Z-0.0956
G1 X 15.3570 Y 29.8110 Z-0.0957
G1 X 15.3130 Y 29.8350 Z-0.0959
G1 X 15.2740 Y 29.8670 Z-0.0960
G1 X 15.2420 Y 29.9060 Z-0.0962
G1 X 15.2180 Y 29.9500 Z-0.0963
G1 X 15.2040 Y 29.9980 Z-0.0964
G1 X 15.1990 Y 30.0480 Z-0.0963
G1 Y 30.1810 Z-0.0960
G1 Y 30.2260
G1 Y 30.2540 Z-0.0959
G1 X 15.1720 Y 30.2530 Z-0.0960
G1 X 15.1150 Y 30.3100
G1 X 15.0830 Y 30.3490
G1 X 15.0590 Y 30.3930
G1 X 15.0450 Y 30.4410 Z-0.0959
G1 X 15.0400 Y 30.4910 Z-0.0958
G1 X 15.0450 Y 30.5410 Z-0.0957
G1 X 15.0590 Y 30.5900 Z-0.0956
G1 X 15.0830 Y 30.6340 Z-0.0954
G1 X 15.1150 Y 30.6730 Z-0.0952
G1 X 15.1770 Y 30.7350 Z-0.0950
G1 Y 30.9420 Z-0.0945
G1 Y 31.1960 Z-0.0940
G1 Y 31.4490 Z-0.0935
G1 Y 31.7030 Z-0.0930
G1 Y 31.9560 Z-0.0924
G1 Y 32.2100 Z-0.0919
G1 Y 32.4630 Z-0.0914
G1 Y 32.7170 Z-0.0909
G1 Y 32.7650 Z-0.0908
G1 X 15.1520 Y 32.7890
G1 X 15.0150 Y 32.9270
G1 X 14.1000 Z-0.0929
G1 X 13.1850 Z-0.0949
G1 X 13.0470 Y 32.7880 Z-0.0955
G1 X 13.0230 Y 32.7650 Z-0.0956
G1 Y 32.7170 Z-0.0957
G1 Y 32.4630 Z-0.0963
G1 Y 32.2100 Z-0.0968
G1 Y 31.9560 Z-0.0974
G1 Y 31.7030 Z-0.0979
G1 Y 31.4490 Z-0.0985
G1 Y 31.1960 Z-0.0990
G1 Y 30.9420 Z-0.0996
G1 Y 30.7350 Z-0.1001
G1 X 13.1070 Y 30.6510 Z-0.1000
G1 X 13.1390 Y 30.6130 Z-0.1001
G1 X 13.1630 Y 30.5680
G1 X 13.1770 Y 30.5200 Z-0.1002
G1 X 13.1820 Y 30.4700 Z-0.1003
G1 X 13.1770 Y 30.4200 Z-0.1004
G1 X 13.1630 Y 30.3720 Z-0.1005
G1 X 13.1390 Y 30.3280 Z-0.1007
G1 X 13.1070 Y 30.2890 Z-0.1008
G1 X 13.0710 Y 30.2520 Z-0.1010
G1 X 13.0450 Y 30.2260 Z-0.1011
G1 Y 30.1810 Z-0.1012
G1 Y 29.9270 Z-0.1015
G1 Y 29.6740 Z-0.1013
G1 Y 29.4200 Z-0.1010
G1 Y 29.1670 Z-0.1007
G1 Y 28.9130 Z-0.1005
G1 Y 28.6590 Z-0.1002
G1 Y 28.4060 Z-0.0999
G1 Y 28.1940 Z-0.0997
G1 X 13.1590 Y 28.0800 Z-0.0993
G1 X 13.2070 Y 28.0320 Z-0.0991
G1 X 14.1220 Z-0.0966
G1 X 15.0370 Z-0.0940
G1 X 15.0850 Y 28.0800 Z-0.0939
G1 X 15.1990 Y 28.1940 Z-0.0938
G1 Y 28.3720 Z-0.0941
G1 X 15.2040 Y 28.4220
G1 X 15.2180 Y 28.4700
G1 X 15.2420 Y 28.5140
G1 X 15.2740 Y 28.5530
G1 X 15.3130 Y 28.5850
G1 X 15.3570 Y 28.6090 Z-0.0940
G1 X 15.4050 Y 28.6230 Z-0.0939
G1 X 15.4550 Y 28.6280 Z-0.0937
G1 X 15.8450 Z-0.0927
G1 X 15.8950 Y 28.6230 Z-0.0925
G1 X 15.9430 Y 28.6090 Z-0.0924
G1 X 15.9880 Y 28.5850 Z-0.0922
G1 X 16.0270 Y 28.5530 Z-0.0921
G1 X 16.2460 Y 28.3330 Z-0.0911
G1 X 16.5000 Y 28.0800 Z-0.0900
G1 X 16.7540 Y 27.8260 Z-0.0889
G1 X 16.9330 Y 27.6440 Z-0.0881
G1 X 16.9650 Y 27.6050 Z-0.0880
G1 X 16.9890 Y 27.5600 Z-0.0878
G1 X 17.0030 Y 27.5120 Z-0.0877
G1 X 17.0080 Y 27.4620 Z-0.0876
G1 X 17.0030 Y 27.4120
G1 X 16.9890 Y 27.3640 Z-0.0875
G1 X 16.9650 Y 27.3200
G1 X 16.9330 Y 27.2810
G1 X 16.8620 Y 27.2100 Z-0.0876
G1 X 16.6080 Y 26.9560 Z-0.0880
G1 X 16.3550 Y 26.7030 Z-0.0883
G1 X 16.1010 Y 26.4490 Z-0.0886
G1 X 15.8480 Y 26.1950 Z-0.0890
G1 X 15.7090 Y 26.0570 Z-0.0892
G1 X 15.6700 Y 26.0250 Z-0.0893
G1 X 15.6260 Y 26.0010 Z-0.0894
G1 X 15.5780 Y 25.9870 Z-0.0895
G1 X 15.5280 Y 25.9820 Z-0.0896
G1 X 15.4550 Z-0.0898
G1 X 15.4050 Y 25.9870 Z-0.0900
G1 X 15.3570 Y 26.0010 Z-0.0902
G1 X 15.3130 Y 26.0250 Z-0.0903
G1 X 15.2740 Y 26.0570 Z-0.0905
G1 X 15.2420 Y 26.0960 Z-0.0906
G1 X 15.2180 Y 26.1400 Z-0.0908
G1 X 15.2040 Y 26.1880 Z-0.0909
G1 X 15.1990 Y 26.2380 Z-0.0910
G1 Y 26.3770 Z-0.0912
G1 Y 26.4160
G1 X 15.1660 Y 26.4490 Z-0.0914
G1 X 15.0370 Y 26.5780 Z-0.0919
G1 X 14.1220 Z-0.0947
G1 X 13.2070 Z-0.0975
G1 X 13.0450 Y 26.4160 Z-0.0979
G1 Y 26.3770 Z-0.0978
G1 Y 26.1230 Z-0.0976
G1 Y 25.8690 Z-0.0973
G1 Y 25.6160 Z-0.0970
G1 Y 25.3620 Z-0.0968
G1 Y 25.1090 Z-0.0965
G1 Y 24.8550 Z-0.0966
G1 Y 24.6010 Z-0.0968
G1 Y 24.3840 Z-0.0971
G1 X 13.1070 Y 24.3220 Z-0.0970
G1 X 13.1390 Y 24.2830 Z-0.0969
G1 X 13.1630 Y 24.2380
G1 X 13.1770 Y 24.1900
G1 X 13.1820 Y 24.1400
G1 X 13.1770 Y 24.0900 Z-0.0970
G1 X 13.1630 Y 24.0420 Z-0.0971
G1 X 13.1390 Y 23.9980 Z-0.0972
G1 X 13.1070 Y 23.9590 Z-0.0974
G1 X 13.0610 Y 23.9130 Z-0.0976
G1 X 13.0230 Y 23.8750 Z-0.0978
G1 Y 23.8400
G1 Y 23.5870 Z-0.0981
G1 Y 23.3330 Z-0.0984
G1 Y 23.0800 Z-0.0987
G1 Y 22.8260 Z-0.0990
G1 Y 22.5720 Z-0.0993
G1 Y 22.3190 Z-0.0996
G1 Y 22.0650 Z-0.0998
G1 Y 21.8450 Z-0.1001
G1 X 13.1290 Y 21.7390 Z-0.0999
G1 X 13.1850 Y 21.6830 Z-0.0997
G1 X 14.1000 Z-0.0966
G1 X 15.0150 Z-0.0935
G1 X 15.1770 Y 21.8450 Z-0.0929
G1 Y 22.0650 Z-0.0926
G1 Y 22.3190 Z-0.0923
G1 Y 22.5720 Z-0.0920
G1 Y 22.8260 Z-0.0917
G1 Y 23.0800 Z-0.0914
G1 Y 23.3330 Z-0.0912
G1 Y 23.5870 Z-0.0909
G1 Y 23.8400 Z-0.0906
G1 Y 23.8750 Z-0.0905
G1 X 15.1390 Y 23.9130 Z-0.0906
G1 X 15.1150 Y 23.9370
G1 X 15.0830 Y 23.9760 Z-0.0907
G1 X 15.0590 Y 24.0200
G1 X 15.0450 Y 24.0680
G1 X 15.0400 Y 24.1180
G1 X 15.0450 Y 24.1680 Z-0.0906
G1 X 15.0590 Y 24.2160 Z-0.0905
G1 X 15.0830 Y 24.2610 Z-0.0904
G1 X 15.1150 Y 24.3000 Z-0.0902
G1 X 15.1990 Y 24.3840 Z-0.0899
G1 Y 24.5620 Z-0.0897
G1 X 15.2040 Y 24.6120 Z-0.0896
G1 X 15.2180 Y 24.6600 Z-0.0895
G1 X 15.2420 Y 24.7040 Z-0.0894
G1 X 15.2740 Y 24.7430 Z-0.0892
G1 X 15.3130 Y 24.7750 Z-0.0891
G1 X 15.3570 Y 24.7990 Z-0.0889
G1 X 15.4050 Y 24.8130 Z-0.0888
G1 X 15.4550 Y 24.8180 Z-0.0886
G1 X 15.9910 Z-0.0870
G1 X 16.0400 Y 24.8390 Z-0.0868
G1 X 16.2040 Y 24.9070 Z-0.0862
G1 X 16.3340 Y 25.0360 Z-0.0857
G1 X 16.5880 Y 25.2900 Z-0.0854
G1 X 16.8410 Y 25.5430 Z-0.0850
G1 X 17.0950 Y 25.7970 Z-0.0847
G1 X 17.3480 Y 26.0510 Z-0.0843
G1 X 17.6020 Y 26.3040 Z-0.0840
G1 X 17.6280 Y 26.3310
G1 X 17.6670 Y 26.3630 Z-0.0839
G1 X 17.7120 Y 26.3860 Z-0.0838
G1 X 17.7600 Y 26.4010 Z-0.0837
G1 X 17.8100 Y 26.4060 Z-0.0836
G1 X 18.9750 Z-0.0801
G1 X 19.0250 Y 26.4010 Z-0.0800
G1 X 19.0730 Y 26.3860 Z-0.0798
G1 X 19.1180 Y 26.3630 Z-0.0796
G1 X 19.1560 Y 26.3310 Z-0.0795
G1 X 19.1880 Y 26.2920 Z-0.0793
G1 X 19.2120 Y 26.2470 Z-0.0791
G1 X 19.2270 Y 26.1990 Z-0.0790
G1 X 19.2320 Y 26.1490 Z-0.0789
G1 X 19.2270 Y 26.0990 Z-0.0788
G1 X 19.2120 Y 26.0510
G1 X 19.1880 Y 26.0070
G1 X 19.1560 Y 25.9680
G1 X 19.1080 Y 25.9200 Z-0.0789
G1 Y 25.8690 Z-0.0788
G1 Y 25.6160 Z-0.0783
G1 Y 25.3620 Z-0.0778
G1 Y 25.1090 Z-0.0774
G1 Y 24.8830 Z-0.0773
G1 X 19.1030 Y 24.8340 Z-0.0774
G1 Y 24.6010 Z-0.0777
G1 Y 24.3480 Z-0.0781
G1 Y 24.0940 Z-0.0784
G1 Y 23.8400 Z-0.0788
G1 Y 23.5870 Z-0.0791
G1 Y 23.3330 Z-0.0795
G1 Y 23.0800 Z-0.0798
G1 Y 22.8260 Z-0.0801
G1 Y 22.7070 Z-0.0803
G1 X 19.0980 Y 22.6570 Z-0.0804
G1 X 19.0840 Y 22.6090 Z-0.0805
G1 X 19.0600 Y 22.5650 Z-0.0806
G1 X 19.0280 Y 22.5260 Z-0.0808
G1 X 18.9890 Y 22.4940 Z-0.0809
G1 X 18.9670 Y 22.4820 Z-0.0810
G1 X 18.7740 Y 22.2890 Z-0.0818
G1 Y 22.0650 Z-0.0821
G1 Y 21.8110 Z-0.0825
G1 Y 21.5580 Z-0.0828
G1 Y 21.3040 Z-0.0832
G1 Y 21.0510 Z-0.0835
G1 Y 20.7970 Z-0.0839
G1 Y 20.5430 Z-0.0842
G1 Y 20.2900 Z-0.0845
G1 Y 20.2560 Z-0.0846
G1 X 18.8130 Y 20.2170 Z-0.0845
G1 X 18.8640 Y 20.1660
G1 X 18.8950 Y 20.1270 Z-0.0844
G1 X 18.9190 Y 20.0830
G1 X 18.9340 Y 20.0350
G1 X 18.9390 Y 19.9850 Z-0.0845
G1 Y 19.7830 Z-0.0844
G1 Y 19.5290 Z-0.0842
G1 Y 19.2750 Z-0.0841
G1 Y 19.0220 Z-0.0840
G1 Y 18.7680 Z-0.0838
G1 Y 18.5140 Z-0.0837
G1 Y 18.2610 Z-0.0836
G1 Y 18.0070 Z-0.0834
G1 Y 17.7540 Z-0.0833
G1 Y 17.5000 Z-0.0832
G1 Y 17.2460 Z-0.0830
G1 Y 16.9930 Z-0.0829
G1 Y 16.7390 Z-0.0828
G1 Y 16.4850 Z-0.0826
G1 Y 16.3880
G1 X 18.9340 Y 16.3380
G1 X 18.9190 Y 16.2900
G1 X 18.8950 Y 16.2460
G1 X 18.8640 Y 16.2070
G1 X 18.8250 Y 16.1750 Z-0.0827
G1 X 18.7800 Y 16.1510
G1 X 18.7320 Y 16.1370 Z-0.0828
G1 X 18.6820 Y 16.1320 Z-0.0829
G1 X 18.0310 Z-0.0840
G1 X 17.3800 Z-0.0851
G1 X 17.2990 Y 16.0510 Z-0.0852
G1 X 17.2180 Y 15.9700
G1 Y 15.7250 Z-0.0850
G1 Y 15.4710 Z-0.0847
G1 Y 15.2170 Z-0.0845
G1 Y 14.9640 Z-0.0843
G1 Y 14.7100 Z-0.0844
G1 Y 14.4560 Z-0.0845
G1 Y 14.2030
G1 Y 13.9490 Z-0.0846
G1 Y 13.6960 Z-0.0847
G1 Y 13.4420 Z-0.0848
G1 Y 13.2400 Z-0.0849
G1 X 17.3420 Y 13.1160 Z-0.0847
G1 X 17.3800 Y 13.0780 Z-0.0846
G1 X 18.0730 Z-0.0833
G1 X 18.1230 Y 13.0730 Z-0.0832
G1 X 18.1710 Y 13.0590 Z-0.0831
G1 X 18.2150 Y 13.0350 Z-0.0830
G1 X 18.2540 Y 13.0030 Z-0.0829
G1 X 18.2860 Y 12.9640
G1 X 18.3100 Y 12.9200 Z-0.0828
G1 X 18.3240 Y 12.8720
G1 X 18.3290 Y 12.8220
G1 Y 12.6810
G1 Y 12.4270
G1 Y 12.1740
G1 Y 11.9200
G1 Y 11.7060
G1 X 18.4090 Y 11.5120 Z-0.0826
G1 X 18.5070 Y 11.2770 Z-0.0824
G1 X 18.8710 Y 10.9130 Z-0.0814
G1 X 19.2030 Y 10.5810 Z-0.0805
G1 X 19.4570 Y 10.3270 Z-0.0798
G1 X 19.7140 Y 10.0700 Z-0.0790
G1 X 19.7460 Y 10.0310 Z-0.0789
G1 X 19.7700 Y 9.9860 Z-0.0788
G1 X 19.7840 Y 9.9380 Z-0.0786
G1 X 19.7890 Y 9.8880
G1 Y 9.6380 Z-0.0782
G1 Y 9.3840 Z-0.0778
G1 Y 9.1300 Z-0.0774
G1 Y 8.8770 Z-0.0770
G1 Y 8.6130 Z-0.0766
G1 X 19.7840 Y 8.5630
G1 X 19.7700 Y 8.5150 Z-0.0765
G1 X 19.7460 Y 8.4710
G1 X 19.7140 Y 8.4320 Z-0.0766
G1 X 19.6750 Y 8.4000
G1 X 19.6310 Y 8.3760 Z-0.0767
G1 X 19.5830 Y 8.3620 Z-0.0768
G1 X 19.5330 Y 8.3570 Z-0.0770
G1 X 19.3400 Z-0.0775
G1 X 19.1780 Y 8.1950 Z-0.0778
G1 Y 8.1160 Z-0.0776
G1 Y 7.8620 Z-0.0773
G1 Y 7.6090 Z-0.0769
G1 Y 7.3550 Z-0.0765
G1 Y 7.1010 Z-0.0761
G1 Y 6.8480 Z-0.0757
G1 Y 6.5940 Z-0.0754
G1 Y 6.3410 Z-0.0750
G1 Y 6.0870 Z-0.0746
G1 Y 5.8330 Z-0.0742
G1 Y 5.5800 Z-0.0738
G1 Y 5.3260 Z-0.0735
G1 Y 5.0720 Z-0.0731
G1 Y 4.8190
G1 Y 4.5650 Z-0.0732
G1 Y 4.3120 Z-0.0734
G1 Y 4.0580 Z-0.0735
G1 Y 3.8040 Z-0.0737
G1 Y 3.5510 Z-0.0738
G1 Y 3.2970 Z-0.0740
G1 Y 3.0430 Z-0.0741
G1 Y 2.7900 Z-0.0743
G1 Y 2.5360 Z-0.0744
G1 Y 2.2830 Z-0.0746
G1 Y 2.0290 Z-0.0747
G1 X 19.1870 Y 1.9560
G1 X 19.3400 Y 1.8030 Z-0.0745
G1 X 20.4167 Z-0.0724
G1 X 21.4933 Z-0.0702
G1 X 22.5700 Z-0.0680
G1 X 22.7320 Y 1.9650 Z-0.0676
G1 Y 2.0290
G1 Y 2.2830
G1 Y 2.5360 Z-0.0675
G1 Y 2.7900
G1 Y 3.0430 Z-0.0674
G1 Y 3.2970 Z-0.0673
G1 Y 3.5510
G1 Y 3.8040 Z-0.0672
G1 Y 4.0580
G1 Y 4.3120 Z-0.0671
G1 Y 4.5650
G1 Y 4.8190 Z-0.0670
G1 Y 5.0720 Z-0.0671
G1 Y 5.3260 Z-0.0675
G1 Y 5.5800 Z-0.0679
G1 Y 5.8330 Z-0.0683
G1 Y 6.0870 Z-0.0686
G1 Y 6.3410 Z-0.0690
G1 Y 6.5940 Z-0.0694
G1 Y 6.8480 Z-0.0698
G1 Y 7.1010 Z-0.0702
G1 Y 7.3550 Z-0.0706
G1 Y 7.6090 Z-0.0710
G1 Y 7.8620 Z-0.0714
G1 Y 8.1160 Z-0.0718
G1 Y 8.1950 Z-0.0719
G1 X 22.5700 Y 8.3570 Z-0.0723
G1 X 22.3770 Z-0.0726
G1 X 22.3270 Y 8.3620 Z-0.0727
G1 X 22.2790 Y 8.3760
G1 X 22.2350 Y 8.4000 Z-0.0728
G1 X 22.1960 Y 8.4320 Z-0.0729
G1 X 22.1640 Y 8.4710 Z-0.0730
G1 X 22.1400 Y 8.5150 Z-0.0731
G1 X 22.1260 Y 8.5630 Z-0.0732
G1 X 22.1210 Y 8.6230 Z-0.0733
G1 Y 8.8770 Z-0.0737
G1 Y 9.1300 Z-0.0741
G1 Y 9.3840 Z-0.0745
G1 Y 9.6380 Z-0.0749
G1 Y 9.8910 Z-0.0753
G1 Y 10.1450 Z-0.0755
G1 Y 10.3980
G1 Y 10.6520
G1 Y 10.7090 Z-0.0756
G1 Y 10.7430
G1 X 22.1040 Y 10.7630
G1 X 22.0800 Y 10.8080
G1 Z 0.5344 F 3000.00
G1 X 22.9015 Y 11.4168 Z 0.5355 F 1200.00
G1 X 23.7230 Y 12.0255 Z 0.5367
G1 X 24.5445 Y 12.6342 Z 0.5380
G1 X 25.3660 Y 13.2430 Z 0.5394
G1 Z 0.0394 F 1500.00
G1 Z-0.0706 F 60.00
G1 Y 14.2220 Z-0.0705 F 450.00
G1 X 25.3240
G1 Z 0.5395 F 3000.00
G1 X 25.3840 Y 13.2250 Z 0.5394 F 1200.00
G1 Z 0.0394 F 1500.00
G1 Z-0.0706 F 60.00
G1 X 25.3900 Y 13.2180 F 450.00
G1 X 25.4290 Y 13.1960
G1 X 25.4720 Y 13.1850 Z-0.0705
G1 X 26.2920 Z-0.0695
G1 X 27.1120 Z-0.0685
G1 Y 13.2250
G1 X 26.2480 Z-0.0696
G1 X 25.3840 Z-0.0706
G1 Z 0.5394 F 3000.00
G1 X 26.6310 Z 0.5409 F 1200.00
G1 X 27.8780 Z 0.5425
G1 Z 0.0425 F 1500.00
G1 Z-0.0675 F 60.00
G1 Y 13.1850 Z-0.0676 F 450.00
G1 X 28.6980 Z-0.0665
G1 X 29.5180 Z-0.0655
G1 X 29.5610 Y 13.1960
G1 X 29.5990 Y 13.2190 Z-0.0654
G1 X 29.6060 Y 13.2250
G1 X 28.7420 Z-0.0665
G1 X 27.8780 Z-0.0675
G1 Z 0.5425 F 3000.00
G1 X 28.7510 Y 13.2340 Z 0.5435 F 1200.00
G1 X 29.6240 Y 13.2430 Z 0.5446
G1 Z 0.0446 F 1500.00
G1 Z-0.0654 F 60.00
G1 Y 14.2220 F 450.00
G1 X 29.6650 Z-0.0653
G1 Z 0.5447 F 3000.00
G1 X 30.4800 Z 0.5448 F 1200.00
G1 X 31.2950 Z 0.5443
G1 Z 0.0443 F 1500.00
G1 Z-0.0657 F 60.00
G1 X 31.3360 F 450.00
G1 Y 13.2430 Z-0.0658
G1 Z 0.5442 F 3000.00
G1 X 31.3540 Y 13.2250 F 1200.00
G1 Z 0.0442 F 1500.00
G1 Z-0.0658 F 60.00
G1 X 31.3610 Y 13.2190 F 450.00
G1 X 31.3990 Y 13.1960 Z-0.0659
G1 X 31.4420 Y 13.1850
G1 X 32.2620 Z-0.0665
G1 X 33.0820 Z-0.0670
G1 Y 13.2250
G1 X 32.2180 Z-0.0664
G1 X 31.3540 Z-0.0658
G1 Z 0.5442 F 3000.00
G1 X 32.6010 Z 0.5433 F 1200.00
G1 X 33.8480 Z 0.5425
G1 Z 0.0425 F 1500.00
G1 Z-0.0675 F 60.00
G1 Y 13.1850 F 450.00
G1 X 34.6680 Z-0.0681
G1 X 35.4880 Z-0.0677
G1 X 35.5310 Y 13.1960 Z-0.0676
G1 X 35.5690 Y 13.2190
G1 X 35.5760 Y 13.2250
G1 X 34.7120 Z-0.0681
G1 X 33.8480 Z-0.0675
G1 Z 0.5425 F 3000.00
G1 X 34.7210 Y 13.2340 Z 0.5419 F 1200.00
G1 X 35.5940 Y 13.2430 Z 0.5425
G1 Z 0.0425 F 1500.00
G1 Z-0.0675 F 60.00
G1 Y 14.2220 Z-0.0669 F 450.00
G1 X 35.6350
G1 Z 0.5431 F 3000.00
G1 X 35.6185 Y 15.0905 Z 0.5436 F 1200.00
G1 X 35.6020 Y 15.9590 Z 0.5443
G1 Z 0.0443 F 1500.00
G1 Z-0.0657 F 60.00
G1 X 35.5940 Y 15.9670 F 450.00
G1 Y 14.9880 Z-0.0665
G1 X 35.6350 Z-0.0664
G1 Y 15.2170 Z-0.0663
G1 Y 15.4710 Z-0.0661
G1 Y 15.7250 Z-0.0659
G1 Y 15.8780 Z-0.0657
G1 X 35.6240 Y 15.9210
G1 X 35.6020 Y 15.9590
G1 X 35.5760 Y 15.9850
G1 X 35.5680 Y 15.9950
G1 X 35.5350 Y 16.0130 Z-0.0658
G1 X 35.4880 Y 16.0250
G1 X 34.6680 Z-0.0664
G1 X 33.8480
G1 Y 15.9850
G1 X 34.7120 Z-0.0665
G1 X 35.5760 Z-0.0657
G1 Z 0.5443 F 3000.00
G1 X 34.3290 Z 0.5435 F 1200.00
G1 X 33.0820 Z 0.5436
G1 Z 0.0436 F 1500.00
G1 Z-0.0664 F 60.00
G1 Y 16.0250 F 450.00
G1 X 32.2620
G1 X 31.4420
G1 X 31.3990 Y 16.0140
G1 X 31.3610 Y 15.9910
G1 X 31.3540 Y 15.9850
G1 X 32.2180
G1 X 33.0820
G1 Z 0.5436 F 3000.00
G1 X 32.2090 Y 15.9760 F 1200.00
G1 X 31.3360 Y 15.9670
G1 Z 0.0436 F 1500.00
G1 Z-0.0664 F 60.00
G1 X 31.3280 Y 15.9590 F 450.00
G1 X 31.3060 Y 15.9210 Z-0.0663
G1 X 31.2950 Y 15.8780
G1 Y 15.7250 Z-0.0662
G1 Y 15.4710 Z-0.0660
G1 Y 15.2170 Z-0.0657
G1 Y 14.9880 Z-0.0655
G1 X 31.3360 Z-0.0656
G1 Y 15.9670 Z-0.0664
G1 Z 0.5436 F 3000.00
G1 X 30.4840 Y 15.9630 F 1200.00
G1 X 29.6320 Y 15.9590 Z 0.5433
G1 Z 0.0433 F 1500.00
G1 Z-0.0667 F 60.00
G1 X 29.6240 Y 15.9670 F 450.00
G1 Y 14.9880 Z-0.0653
G1 X 29.6650
G1 Y 15.2170 Z-0.0656
G1 Y 15.4710 Z-0.0660
G1 Y 15.7250 Z-0.0663
G1 Y 15.8780 Z-0.0665
G1 X 29.6540 Y 15.9210 Z-0.0666
G1 X 29.6320 Y 15.9590 Z-0.0667
G1 X 29.6060 Y 15.9850 Z-0.0668
G1 X 29.5990 Y 15.9910
G1 X 29.5610 Y 16.0140
G1 X 29.5180 Y 16.0250 Z-0.0669
G1 X 28.6980 Z-0.0677
G1 X 27.8780 Z-0.0685
G1 Y 15.9850
G1 X 28.7420 Z-0.0676
G1 X 29.6060 Z-0.0668
G1 Z 0.5432 F 3000.00
G1 X 28.3590 Z 0.5420 F 1200.00
G1 X 27.1120 Z 0.5408
G1 Z 0.0408 F 1500.00
G1 Z-0.0692 F 60.00
G1 Y 16.0250 F 450.00
G1 X 26.2920 Z-0.0700
G1 X 25.4720 Z-0.0708
G1 X 25.4290 Y 16.0140 Z-0.0709
G1 X 25.3900 Y 15.9910
G1 X 25.3840 Y 15.9850
G1 X 26.2480 Z-0.0700
G1 X 27.1120 Z-0.0692
G1 Z 0.5408 F 3000.00
G1 X 26.2390 Y 15.9760 Z 0.5399 F 1200.00
G1 X 25.3660 Y 15.9670 Z 0.5391
G1 Z 0.0391 F 1500.00
G1 Z-0.0709 F 60.00
G1 X 25.3580 Y 15.9590 F 450.00
G1 X 25.3360 Y 15.9210
G1 X 25.3240 Y 15.8780
G1 Y 15.7250 Z-0.0708
G1 Y 15.4710 Z-0.0706
G1 Y 15.2170 Z-0.0705
G1 Y 14.9880 Z-0.0704
G1 X 25.3660 Z-0.0703
G1 Y 15.9670 Z-0.0709
G1 Z 0.5391 F 3000.00
G1 X 24.2465 Y 15.9930 Z 0.5373 F 1200.00
G1 X 23.1270 Y 16.0190 Z 0.5352
G1 X 22.0075 Y 16.0450 Z 0.5331
G1 X 20.8880 Y 16.0710 Z 0.5310
G1 Z 0.0310 F 1500.00
G1 Z-0.0790 F 60.00
G1 X 20.8280 Y 16.1030 Z-0.0791 F 450.00
G1 X 20.7760 Y 16.1460 Z-0.0792
G1 X 20.7340 Y 16.1980 Z-0.0793
G1 X 20.7020 Y 16.2570 Z-0.0794
G1 Y 16.0710 Z-0.0793
G1 X 20.8880 Z-0.0790
G1 Z 0.5310 F 3000.00
G1 X 19.9870 Y 16.0280 Z 0.5294 F 1200.00
G1 X 19.0860 Y 15.9850 Z 0.5279
G1 Z 0.0279 F 1500.00
G1 Z-0.0821 F 60.00
G1 X 18.2260 Z-0.0836 F 450.00
G1 X 17.3660 Z-0.0850
G1 Y 15.0650 Z-0.0841
G1 Y 14.1450 Z-0.0843
G1 Y 13.2250 Z-0.0846
G1 X 18.4770 Z-0.0825
G1 Y 12.5810
G1 Y 11.9370
G1 X 18.4960 Y 11.7390 Z-0.0824
G1 X 18.5540 Y 11.5480 Z-0.0823
G1 X 18.6480 Y 11.3720 Z-0.0820
G1 X 18.7750 Y 11.2170 Z-0.0817
G1 X 19.3560 Y 10.6365 Z-0.0801
G1 X 19.9370 Y 10.0560 Z-0.0783
G1 Y 9.1325 Z-0.0770
G1 Y 8.2090 Z-0.0756
G1 X 19.3260 Z-0.0774
G1 Y 7.1660 Z-0.0758
G1 Y 6.1230 Z-0.0742
G1 Y 5.0800 Z-0.0727
G1 Y 4.0370 Z-0.0732
G1 Y 2.9940 Z-0.0738
G1 Y 1.9510 Z-0.0745
G1 X 20.4120 Z-0.0723
G1 X 21.4980 Z-0.0701
G1 X 22.5840 Z-0.0679
G1 Y 2.9940 Z-0.0677
G1 Y 4.0370 Z-0.0674
G1 Y 5.0800 Z-0.0673
G1 Y 6.1230 Z-0.0689
G1 Y 7.1660 Z-0.0705
G1 Y 8.2090 Z-0.0721
G1 X 21.9730 Z-0.0729
G1 Y 9.3430 Z-0.0746
G1 Y 10.4770 Z-0.0757
G1 X 21.9540 Y 10.6760 Z-0.0758
G1 X 21.8960 Y 10.8670 Z-0.0759
G1 X 21.8020 Y 11.0430 Z-0.0761
G1 X 21.6750 Y 11.1980 Z-0.0763
G1 X 21.0940 Y 11.7785 Z-0.0773
G1 X 20.5130 Y 12.3590 Z-0.0784
G1 Y 13.2250 Z-0.0787
G1 X 21.6240 Z-0.0768
G1 Y 14.1450 Z-0.0770
G1 Y 15.0650 Z-0.0773
G1 Y 15.9850 Z-0.0776
G1 X 20.6150 Z-0.0794
G1 Y 17.0493 Z-0.0797
G1 Y 18.1135 Z-0.0800
G1 Y 19.1777 Z-0.0803
G1 Y 20.2420 Z-0.0802
G1 X 20.7800 Z-0.0800
G1 Y 21.2725 Z-0.0788
G1 Y 22.3030 Z-0.0776
G1 X 20.1190 Z-0.0781
G1 Y 23.5040 Z-0.0765
G1 Y 24.7050 Z-0.0748
G1 X 20.1140 Y 24.7540
G1 Y 25.9340 Z-0.0762
G1 X 19.2560 Z-0.0784
G1 Y 24.7540 Z-0.0770
G1 X 19.2510 Y 24.7050 Z-0.0771
G1 Y 23.5040 Z-0.0788
G1 Y 22.3030 Z-0.0804
G1 X 18.9210 Z-0.0814
G1 Y 21.2725 Z-0.0828
G1 Y 20.2420 Z-0.0842
G1 X 19.0860 Z-0.0837
G1 Y 19.1777
G1 Y 18.1135 Z-0.0831
G1 Y 17.0493 Z-0.0826
G1 Y 15.9850 Z-0.0821
G1 X 18.9990 Y 16.0710 Z-0.0823
G1 X 18.8140 Z-0.0826
G1 X 18.8730 Y 16.1030 Z-0.0825
G1 X 18.9250 Y 16.1460
G1 X 18.9680 Y 16.1980 Z-0.0824
G1 X 18.9990 Y 16.2570
G1 Y 16.0710 Z-0.0823
G1 Z 0.5277 F 3000.00
G1 X 19.0100 Y 16.3880 Z 0.5275 F 1200.00
G1 Z 0.0275 F 1500.00
G1 Z-0.0825 F 60.00
G1 X 19.0210 Y 16.4370 F 450.00
G1 X 19.0100 Y 16.3880
G1 Z 0.5275 F 3000.00
G1 X 19.0023 Y 17.3298 Z 0.5271 F 1200.00
G1 X 18.9945 Y 18.2715 Z 0.5266
G1 X 18.9868 Y 19.2133 Z 0.5261
G1 X 18.9790 Y 20.1550 Z 0.5259
G1 Z 0.0259 F 1500.00
G1 Z-0.0841 F 60.00
G1 X 18.9990 Y 20.1160 F 450.00
G1 Y 20.1550
G1 X 18.9790
G1 Z 0.5259 F 3000.00
G1 X 20.0095 Y 20.2110 Z 0.5288 F 1200.00
G1 X 21.0400 Y 20.2670 Z 0.5305
G1 Z 0.0305 F 1500.00
G1 Z-0.0795 F 60.00
G1 Y 21.4155 Z-0.0783 F 450.00
G1 Y 22.5640 Z-0.0771
G1 X 20.2930 Z-0.0776
G1 Z 0.5324 F 3000.00
G1 Y 23.2150 Z 0.5332 F 1200.00
G1 Z 0.0332 F 1500.00
G1 Z-0.0768 F 60.00
G1 X 20.3750 Z-0.0767 F 450.00
G1 X 20.2930 Z-0.0768
G1 X 20.2650
G1 X 20.2930
G1 X 20.2650
G1 Z 0.5332 F 3000.00
G1 X 20.3750 Z 0.5333 F 1200.00
G1 Z 0.0333 F 1500.00
G1 Z-0.0767 F 60.00
G1 X 21.5350 Z-0.0761 F 450.00
G1 Z 0.0339 F 1500.00
G1 Z-0.0761 F 60.00
G1 X 21.6450 Z-0.0760 F 450.00
G1 X 21.5350 Z-0.0761
G1 Z 0.5339 F 3000.00
G1 X 21.6450 Z 0.5340 F 1200.00
G1 Z 0.0340 F 1500.00
G1 Z-0.0760 F 60.00
G1 X 22.8050 Z-0.0754 F 450.00
G1 Z 0.0346 F 1500.00
G1 Z-0.0754 F 60.00
G1 X 22.8870 F 450.00
G1 X 22.8050
G1 X 22.8870
G1 X 22.9150 Z-0.0753
G1 X 22.8870 Z-0.0754
G1 Z 0.5346 F 3000.00
G1 Y 22.5640 Z 0.5343 F 1200.00
G1 Z 0.0343 F 1500.00
G1 Z-0.0757 F 60.00
G1 X 22.1960 Z-0.0762 F 450.00
G1 X 21.5050 Z-0.0767
G1 Y 21.4155 Z-0.0778
G1 Y 20.2670 Z-0.0788
G1 Z 0.5312 F 3000.00
G1 X 20.7247 Y 21.0557 Z 0.5309 F 1200.00
G1 X 19.9443 Y 21.8443 Z 0.5310
G1 X 19.1640 Y 22.6330 Z 0.5298
G1 Z 0.0298 F 1500.00
G1 Z-0.0802 F 60.00
G1 Y 22.5760 Z-0.0803 F 450.00
G1 X 19.1320 Y 22.5170 Z-0.0805
G1 X 19.0890 Y 22.4650 Z-0.0807
G1 X 19.0370 Y 22.4220 Z-0.0809
G1 X 19.0200 Y 22.4130 Z-0.0810
G1 X 18.9870 Y 22.3950 Z-0.0811
G1 X 19.1640 Y 22.3900 Z-0.0806
G1 Y 22.5760 Z-0.0803
G1 Y 22.6330 Z-0.0802
G1 Z 0.5298 F 3000.00
G1 X 19.2430 Y 23.8203 Z 0.5316 F 1200.00
G1 X 19.3220 Y 25.0077 Z 0.5335
G1 X 19.4010 Y 26.1950 Z 0.5315
G1 Z 0.0315 F 1500.00
G1 Z-0.0785 F 60.00
G1 X 20.2650 Z-0.0766 F 450.00
G1 Z 0.5334 F 3000.00
G1 X 20.3470 Z 0.5335 F 1200.00
G1 Z 0.0335 F 1500.00
G1 Z-0.0765 F 60.00
G1 X 20.2650 Z-0.0766 F 450.00
G1 X 20.3470 Z-0.0765
G1 X 20.3750
G1 X 20.3470
G1 X 20.3750
G1 Z 0.5335 F 3000.00
G1 X 21.5630 Z 0.5342 F 1200.00
G1 Z 0.0342 F 1500.00
G1 Z-0.0758 F 60.00
G1 X 21.5350 F 450.00
G1 X 21.5630
G1 X 21.6170
G1 X 21.5630
G1 X 21.6170
G1 X 21.6450
G1 X 21.6170
G1 X 21.6450
G1 Z 0.5342 F 3000.00
G1 X 22.8330 Z 0.5350 F 1200.00
G1 Z 0.0350 F 1500.00
G1 Z-0.0750 F 60.00
G1 X 22.8050 Z-0.0751 F 450.00
G1 X 22.8330 Z-0.0750
G1 X 22.9150
G1 X 22.8330
G1 X 22.9150
G1 Z 0.0350 F 1500.00
G1 Z-0.0750 F 60.00
G1 X 24.0750 Z-0.0743 F 450.00
G1 Z 0.5357 F 3000.00
G1 X 24.1850 Z 0.5358 F 1200.00
G1 Z 0.0358 F 1500.00
G1 Z-0.0742 F 60.00
G1 X 24.0750 Z-0.0743 F 450.00
G1 X 24.1850 Z-0.0742
G1 Z 0.0358 F 1500.00
G1 Z-0.0742 F 60.00
G1 X 25.3450 Z-0.0734 F 450.00
G1 Z 0.5366 F 3000.00
G1 X 25.4270 Z 0.5367 F 1200.00
G1 Z 0.0367 F 1500.00
G1 Z-0.0733 F 60.00
G1 X 25.3450 Z-0.0734 F 450.00
G1 X 25.4270 Z-0.0733
G1 X 25.4550
G1 X 25.4270
G1 X 25.4550
G1 Z 0.5367 F 3000.00
G1 X 26.0960 Z 0.5374 F 1200.00
G1 X 26.7370 Z 0.5381
G1 Z 0.0381 F 1500.00
G1 Z-0.0719 F 60.00
G1 X 27.3660 Z-0.0712 F 450.00
G1 X 27.9950 Z-0.0705
G1 Y 25.2457 Z-0.0696
G1 Y 24.2963 Z-0.0699
G1 Y 23.3470 Z-0.0706
G1 Z 0.5394 F 3000.00
G1 X 28.5540 Y 23.1500 Z 0.5400 F 1200.00
G1 Z 0.0400 F 1500.00
G1 Z-0.0700 F 60.00
G1 Y 23.5800 Z-0.0697 F 450.00
G1 X 29.6875 Z-0.0682
G1 X 30.8210 Z-0.0679
G1 Z 0.5421 F 3000.00
G1 Y 24.0450 Z 0.5424 F 1200.00
G1 Z 0.0424 F 1500.00
G1 Z-0.0676 F 60.00
G1 X 29.6875 F 450.00
G1 X 28.5540 Z-0.0693
G1 Y 25.1295 Z-0.0686
G1 Y 26.2140 Z-0.0699
G1 Z 0.5401 F 3000.00
G1 X 28.1440 Y 25.4840 Z 0.5404 F 1200.00
G1 X 27.7340 Y 24.7540 Z 0.5400
G1 Z 0.0400 F 1500.00
G1 Z-0.0700 F 60.00
G1 Y 25.9340 Z-0.0706 F 450.00
G1 X 26.8760 Z-0.0716
G1 Y 24.7540 Z-0.0714
G1 X 26.8710 Y 24.7050 Z-0.0715
G1 Y 23.9410 Z-0.0717
G1 Y 23.1770 Z-0.0720
G1 X 26.8790 Y 23.0930
G1 X 26.9040 Y 23.0110
G1 X 26.9440 Y 22.9360
G1 X 26.9980 Y 22.8700
G1 X 27.6330 Y 22.2350 Z-0.0716
G1 X 27.6990 Y 22.1810
G1 X 27.7740 Y 22.1410
G1 X 27.8550 Y 22.1170 Z-0.0715
G1 X 27.9400 Y 22.1080
G1 X 28.8140 Z-0.0707
G1 Y 21.4610 Z-0.0713
G1 X 29.8450 Z-0.0707
G1 X 30.8760 Z-0.0696
G1 Y 22.3905 Z-0.0689
G1 Y 23.3200 Z-0.0681
G1 X 29.8450 Z-0.0683
G1 X 28.8140 Z-0.0696
G1 Y 22.9770 Z-0.0699
G1 X 28.1200 Z-0.0707
G1 X 27.7390 Y 23.3570 Z-0.0709
G1 Y 24.0310 Z-0.0704
G1 Y 24.7050 Z-0.0700
G1 X 27.7340 Y 24.7540
G1 Z 0.5400 F 3000.00
G1 X 27.1860 Y 24.1095 Z 0.5388 F 1200.00
G1 X 26.6380 Y 23.4650 Z 0.5378
G1 Z 0.0378 F 1500.00
G1 Z-0.0722 F 60.00
G1 X 26.6970 Y 23.4340 Z-0.0721 F 450.00
G1 X 26.7020 Y 23.4310
G1 Y 24.0925 Z-0.0719
G1 Y 24.7540 Z-0.0717
G1 Y 25.4310
G1 Y 26.1080 Z-0.0719
G1 X 27.9080 Z-0.0705
G1 Y 25.4310 Z-0.0699
G1 Y 24.7540 Z-0.0697
G1 X 27.9130 Y 24.7050
G1 Y 24.0670 Z-0.0702
G1 Y 23.4290 Z-0.0706
G1 X 27.9080 Y 23.4340
G1 X 28.1920 Y 23.1500 Z-0.0705
G1 X 28.6410 Z-0.0699
G1 Y 23.4940 Z-0.0696
G1 X 29.7310 Z-0.0682
G1 X 30.8210 Z-0.0680
G1 Y 23.5870 Z-0.0679
G1 Y 23.8400 Z-0.0677
G1 Y 24.0940 Z-0.0675
G1 Y 24.1310
G1 X 29.7310
G1 X 28.6410 Z-0.0691
G1 Y 25.1725 Z-0.0685
G1 Y 26.2140 Z-0.0698
G1 X 27.6985 Z-0.0708
G1 X 26.7560 Z-0.0718
G1 X 26.6380 Y 26.0960 Z-0.0720
G1 X 26.6430 Y 26.1010 Z-0.0719
G1 Y 25.4030 Z-0.0718
G1 Y 24.7050
G1 X 26.6380 Y 24.6560
G1 Y 23.4650 Z-0.0722
G1 X 26.5510 Y 23.4030 Z-0.0723
G1 X 26.5980 Y 23.3890
G1 X 26.6570 Y 23.3570 Z-0.0722
G1 X 26.7090 Y 23.3140 Z-0.0721
G1 X 26.7520 Y 23.2620
G1 X 26.7840 Y 23.2030
G1 Y 23.9540 Z-0.0718
G1 Y 24.7050 Z-0.0716
G1 X 26.7890 Y 24.7540
G1 Y 25.3875
G1 Y 26.0210 Z-0.0718
G1 X 27.8210 Z-0.0705
G1 Y 25.3875 Z-0.0700
G1 Y 24.7540 Z-0.0699
G1 X 27.8260 Y 24.7050
G1 Y 24.0490 Z-0.0703
G1 Y 23.3930 Z-0.0707
G1 X 27.8210 Y 23.3980
G1 X 28.1560 Y 23.0640 Z-0.0706
G1 X 28.7270 Z-0.0699
G1 Y 23.4070 Z-0.0696
G1 X 29.8190 Z-0.0682
G1 X 30.9110 Z-0.0681
G1 X 30.9080 Y 23.4400
G1 Y 23.5870 Z-0.0679
G1 Y 23.8400 Z-0.0678
G1 Y 24.0940 Z-0.0676
G1 Y 24.1850 Z-0.0675
G1 X 30.9110 Y 24.2180
G1 X 29.8190 Z-0.0672
G1 X 28.7270 Z-0.0689
G1 Y 25.2345 Z-0.0684
G1 Y 26.2510 Z-0.0698
G1 X 29.8450 Z-0.0686
G1 X 30.9630 Z-0.0685
G1 Y 25.9210 Z-0.0681
G1 X 31.5850 Z-0.0683
G1 Y 26.3010 Z-0.0686
G1 X 30.3687 Z-0.0685
G1 X 29.1525 Z-0.0694
G1 X 27.9363 Z-0.0706
G1 X 26.7200 Z-0.0719
G1 X 26.5560 Y 26.1370 Z-0.0721
G1 Y 25.4210 Z-0.0720
G1 Y 24.7050
G1 X 26.5510 Y 24.6560
G1 Y 24.0295 Z-0.0721
G1 Y 23.4030 Z-0.0723
G1 Z 0.5377 F 3000.00
G1 X 26.8090 Y 23.0810 Z 0.5379 F 1200.00
G1 Z 0.0379 F 1500.00
G1 Z-0.0721 F 60.00
G1 X 26.7890 Y 23.1310 F 450.00
G1 X 26.8090 Y 23.0810
G1 X 26.8980 Y 22.8670
G1 X 26.8850 Y 22.8970
G1 X 26.8980 Y 22.8670
G1 Z 0.5379 F 3000.00
G1 X 27.6990 Y 22.0830 Z 0.5383 F 1200.00
G1 Z 0.0383 F 1500.00
G1 Z-0.0717 F 60.00
G1 X 27.6600 Y 22.1230 F 450.00
G1 X 27.6990 Y 22.0830
G1 X 27.8930 Y 22.0260 Z-0.0716
G1 X 27.8420 Y 22.0480
G1 X 27.7860
G1 X 27.8930 Y 22.0260
G1 Z 0.5384 F 3000.00
G1 X 28.7270 Y 22.0210 Z 0.5391 F 1200.00
G1 Z 0.0391 F 1500.00
G1 Z-0.0709 F 60.00
G1 X 28.5410 Z-0.0710 F 450.00
G1 X 28.6010 Y 21.9900
G1 X 28.6530 Y 21.9470
G1 X 28.6960 Y 21.8950
G1 X 28.7270 Y 21.8350
G1 Y 22.0210 Z-0.0709
G1 Z 0.5391 F 3000.00
G1 X 29.4250 Y 22.6957 Z 0.5405 F 1200.00
G1 X 30.1230 Y 23.3703 Z 0.5419
G1 X 30.8210 Y 24.0450 Z 0.5424
G1 Z 0.0424 F 1500.00
G1 Z-0.0676 F 60.00
G1 X 30.8470 F 450.00
G1 X 30.8210
G1 Z 0.5424 F 3000.00
G1 X 30.9630 Y 24.6930 Z 0.5428 F 1200.00
G1 Z 0.0428 F 1500.00
G1 Z-0.0672 F 60.00
G1 Y 24.8790 Z-0.0670 F 450.00
G1 X 31.1490 Z-0.0672
G1 X 31.0890 Y 24.8470
G1 X 31.0370 Y 24.8040 Z-0.0671
G1 X 30.9940 Y 24.7520
G1 X 30.9630 Y 24.6930 Z-0.0672
G1 Z 0.5428 F 3000.00
G1 X 31.5850 Y 24.8790 Z 0.5424 F 1200.00
G1 Z 0.0424 F 1500.00
G1 Z-0.0676 F 60.00
G1 X 31.5050 Z-0.0675 F 450.00
G1 X 31.5650 Y 24.8470 Z-0.0676
G1 X 31.5850 Y 24.8310
G1 Y 24.8790
G1 Z 0.5424 F 3000.00
G1 X 31.1360 Y 26.0080 Z 0.5418 F 1200.00
G1 Z 0.0418 F 1500.00
G1 Z-0.0682 F 60.00
G1 Y 26.2140 Z-0.0685 F 450.00
G1 Y 26.0080 Z-0.0682
G1 X 31.0490
G1 X 31.4980 Z-0.0683
G1 Y 26.2140 Z-0.0685
G1 X 31.0490
G1 Y 26.0080 Z-0.0682
G1 Z 0.5418 F 3000.00
G1 X 31.4110 Y 26.2140 Z 0.5415 F 1200.00
G1 Z 0.0415 F 1500.00
G1 Z-0.0685 F 60.00
G1 Y 26.0080 Z-0.0683 F 450.00
G1 Y 26.2140 Z-0.0685
G1 Z 0.5415 F 3000.00
G1 Y 27.4300 Z 0.5404 F 1200.00
G1 Z 0.0404 F 1500.00
G1 Z-0.0696 F 60.00
G1 Y 28.0120 Z-0.0702 F 450.00
G1 X 32.2720 Z-0.0691
G1 X 33.1330 Z-0.0681
G1 X 33.9940 Z-0.0671
G1 Y 27.9130 Z-0.0672
G1 Z 0.5428 F 3000.00
G1 X 33.6040 Y 28.5540 Z 0.5429 F 1200.00
G1 Z 0.0429 F 1500.00
G1 Z-0.0671 F 60.00
G1 X 32.7930 Z-0.0684 F 450.00
G1 X 31.9820 Z-0.0698
G1 Y 29.4147 Z-0.0702
G1 Y 30.2753 Z-0.0699
G1 Y 31.1360 Z-0.0683
G1 X 33.1720 Z-0.0656
G1 X 34.3620 Z-0.0629
G1 Y 30.3255 Z-0.0638
G1 Y 29.5150 Z-0.0647
G1 Z 0.5453 F 3000.00
G1 X 35.1275 Y 29.4525 Z 0.5467 F 1200.00
G1 X 35.8930 Y 29.3900 Z 0.5469
G1 Z 0.0469 F 1500.00
G1 Z-0.0631 F 60.00
G1 Y 29.3400 F 450.00
G1 Y 29.3900
G1 Y 29.3400
G1 Y 29.1830 Z-0.0633
G1 Y 29.3400 Z-0.0631
G1 Z 0.5469 F 3000.00
G1 X 36.1780 Y 30.3560 Z 0.5482 F 1200.00
G1 Z 0.0482 F 1500.00
G1 Z-0.0618 F 60.00
G1 X 36.2160 Y 30.3790 F 450.00
G1 X 36.2600 Y 30.3900
G1 X 36.9650 Z-0.0616
G1 Y 30.3490 Z-0.0617
G1 X 36.1710 Z-0.0618
G1 X 36.1530 Y 30.3320 Z-0.0619
G1 Y 30.1620 Z-0.0620
G1 X 36.1120
G1 Y 30.2420
G1 X 36.1240 Y 30.2880 Z-0.0619
G1 X 36.1230 Y 30.2860
G1 X 36.1490 Y 30.3340
G1 X 36.1780 Y 30.3560 Z-0.0618
G1 Z 0.5482 F 3000.00
G1 X 35.6415 Y 31.2255 Z 0.5488 F 1200.00
G1 X 35.1050 Y 32.0950 Z 0.5493
G1 Z 0.0493 F 1500.00
G1 Z-0.0607 F 60.00
G1 X 35.1260 F 450.00
G1 X 35.1050
G1 X 33.9666 Z-0.0627
G1 X 32.8282 Z-0.0648
G1 X 31.6899 Z-0.0669
G1 X 30.5515 Z-0.0691
G1 X 29.4131 Z-0.0701
G1 X 28.2748
G1 X 27.1364
G1 X 25.9980
G1 Y 31.8170 Z-0.0704
G1 X 25.3730 Z-0.0703
G1 Y 30.8610 Z-0.0709
G1 Y 29.9050 Z-0.0715
G1 X 25.3680 Y 29.8560
G1 Y 28.7070 Z-0.0721
G1 X 25.4320
G1 Y 29.5740 Z-0.0717
G1 Y 30.4410 Z-0.0712
G1 Y 31.3080 Z-0.0706
G1 X 26.6380 Z-0.0711
G1 Y 30.4410 Z-0.0721
G1 Y 29.5740 Z-0.0726
G1 Y 28.7070 Z-0.0724
G1 X 26.7020
G1 Y 29.5740 Z-0.0726
G1 Y 30.4410 Z-0.0722
G1 Y 31.3080 Z-0.0711
G1 X 27.9080 Z-0.0715
G1 Y 30.4410 Z-0.0730
G1 Y 29.5740 Z-0.0735
G1 Y 28.7070 Z-0.0727
G1 X 28.3300 Z-0.0728
G1 X 28.7775 Y 29.1545 Z-0.0735
G1 X 29.2250 Y 29.6020 Z-0.0744
G1 Y 30.3255 Z-0.0743
G1 Y 31.0490 Z-0.0726
G1 X 30.3280 Z-0.0722
G1 X 31.4310 Z-0.0697
G1 Y 29.8450 Z-0.0718
G1 Y 28.6410 Z-0.0707
G1 X 30.7070 Z-0.0719
G1 X 29.9830 Z-0.0731
G1 X 29.4975 Y 28.1550 Z-0.0722
G1 X 29.0120 Y 27.6690 Z-0.0715
G1 X 28.9200 Y 27.5930 Z-0.0714
G1 X 28.8140 Y 27.5370
G1 X 28.7000 Y 27.5030
G1 X 28.5820 Y 27.4910
G1 X 27.4292 Z-0.0719
G1 X 26.2765 Z-0.0723
G1 X 25.1238 Z-0.0728
G1 X 23.9710 Z-0.0742
G1 X 23.8530 Y 27.5030 Z-0.0743
G1 X 23.7390 Y 27.5370 Z-0.0745
G1 X 23.6340 Y 27.5930 Z-0.0746
G1 X 23.5410 Y 27.6690 Z-0.0747
G1 X 23.0650 Y 28.1450 Z-0.0755
G1 X 22.9900 Y 28.2370 Z-0.0757
G1 X 22.9330 Y 28.3420 Z-0.0758
G1 X 22.8990 Y 28.4560 Z-0.0759
G1 X 22.8920 Y 28.5020 Z-0.0760
G1 Y 28.5260
G1 X 22.8870 Y 28.5750
G1 Y 29.2400 Z-0.0763
G1 Y 29.9050 Z-0.0766
G1 X 22.8920 Y 29.9540
G1 Y 30.6310 Z-0.0759
G1 Y 31.3080 Z-0.0752
G1 X 24.0980 Z-0.0725
G1 Y 30.6310 Z-0.0730
G1 Y 29.9540 Z-0.0735
G1 X 24.1030 Y 29.9050
G1 X 24.0980 Y 28.8320 Z-0.0737
G1 X 24.1620 Y 28.7670 Z-0.0736
G1 Y 29.8560 Z-0.0733
G1 X 24.1570 Y 29.9050
G1 Y 30.8610 Z-0.0727
G1 Y 31.8170 Z-0.0720
G1 X 23.7920 Z-0.0728
G1 Y 32.9200 Z-0.0719
G1 Y 34.0230 Z-0.0709
G1 X 23.1980 Z-0.0718
G1 Y 32.9200 Z-0.0729
G1 Y 31.8170 Z-0.0740
G1 X 22.8330 Z-0.0747
G1 Y 30.8610 Z-0.0758
G1 Y 29.9050 Z-0.0767
G1 X 22.8280 Y 29.8560
G1 Y 29.1790 Z-0.0764
G1 Y 28.5020 Z-0.0761
G1 X 21.6220 Z-0.0783
G1 Y 29.1790 Z-0.0790
G1 Y 29.8560 Z-0.0797
G1 X 21.6195 Y 30.5160 Z-0.0791
G1 X 21.6170 Y 31.1760 Z-0.0782
G1 X 21.5580 Y 31.1450 Z-0.0784
G1 Y 30.2640 Z-0.0797
G1 Y 29.3830 Z-0.0794
G1 Y 28.5020 Z-0.0784
G1 X 21.5050 Y 28.5010 Z-0.0785
G1 X 21.6100 Y 28.4450 Z-0.0782
G1 X 21.7020 Y 28.3700 Z-0.0780
G1 X 22.1785 Y 27.8935 Z-0.0768
G1 X 22.6550 Y 27.4170 Z-0.0758
G1 X 22.7300 Y 27.3250 Z-0.0757
G1 X 22.7860 Y 27.2200 Z-0.0756
G1 X 22.8210 Y 27.1060 Z-0.0755
G1 X 22.8330 Y 26.9870 Z-0.0754
G1 Y 25.8460 Z-0.0749
G1 Y 24.7050 Z-0.0747
G1 X 22.8280 Y 24.6560
G1 Y 23.9790 Z-0.0750
G1 Y 23.3020 Z-0.0753
G1 X 21.6220 Z-0.0760
G1 Y 23.9790 Z-0.0754
G1 Y 24.6560 Z-0.0748
G1 X 21.6170 Y 24.7050 Z-0.0747
G1 Y 25.7205 Z-0.0753
G1 Y 26.7360 Z-0.0764
G1 X 21.5450 Y 26.8080 Z-0.0765
G1 X 21.5630 Y 26.6700 Z-0.0763
G1 Y 25.6875 Z-0.0752
G1 Y 24.7050 Z-0.0747
G1 X 21.5580 Y 24.6560 Z-0.0748
G1 Y 23.9790 Z-0.0754
G1 Y 23.3020 Z-0.0760
G1 X 20.3520 Z-0.0766
G1 Y 23.9790 Z-0.0758
G1 Y 24.6560 Z-0.0749
G1 X 20.3470 Y 24.7050 Z-0.0748
G1 Y 25.5425 Z-0.0754
G1 Y 26.3800 Z-0.0768
G1 X 19.3370 Z-0.0790
G1 X 19.3720 Y 26.3140 Z-0.0788
G1 X 19.3970 Y 26.2330 Z-0.0786
G1 X 19.4050 Y 26.1490 Z-0.0784
G1 X 19.4010 Y 26.1080 Z-0.0783
G1 X 20.2880 Z-0.0764
G1 Y 25.4310 Z-0.0752
G1 Y 24.7540 Z-0.0748
G1 X 20.2930 Y 24.7050
G1 Y 23.5910 Z-0.0763
G1 Y 22.4770 Z-0.0778
G1 X 20.9540 Z-0.0772
G1 Y 21.3690 Z-0.0785
G1 Y 20.2610 Z-0.0797
G1 X 21.0190 Y 20.2670 Z-0.0796
G1 X 21.5910 Z-0.0787
G1 Y 21.3720 Z-0.0777
G1 Y 22.4770 Z-0.0767
G1 X 22.2390 Z-0.0762
G1 X 22.8870 Z-0.0757
G1 Y 23.5910 Z-0.0752
G1 Y 24.7050 Z-0.0747
G1 X 22.8920 Y 24.7540 Z-0.0746
G1 Y 25.4310 Z-0.0747
G1 Y 26.1080 Z-0.0750
G1 X 24.0980 Z-0.0743
G1 Y 25.4310 Z-0.0745
G1 Y 24.7540 Z-0.0746
G1 Y 23.5560 Z-0.0747
G1 X 24.1180 Y 23.5710
G1 X 24.1620 Y 23.5910 Z-0.0746
G1 Y 24.4300
G1 Y 25.2690 Z-0.0745
G1 Y 26.1080 Z-0.0743
G1 X 25.3680 Z-0.0734
G1 Y 24.8975 Z-0.0739
G1 Y 23.6870 Z-0.0738
G1 X 25.4080 Y 23.6830
G1 X 25.4320 Y 23.6760 Z-0.0737
G1 Y 24.6560 Z-0.0738
G1 X 25.4270 Y 24.7050
G1 Y 25.5285 Z-0.0736
G1 Y 26.3520 Z-0.0732
G1 X 25.4390 Y 26.4710
G1 X 25.4730 Y 26.5850 Z-0.0731
G1 X 25.5300 Y 26.6900 Z-0.0730
G1 X 25.6050 Y 26.7820 Z-0.0729
G1 X 26.0750 Y 27.2520 Z-0.0725
G1 X 26.1670 Y 27.3270 Z-0.0724
G1 X 26.2720 Y 27.3830
G1 X 26.3860 Y 27.4180 Z-0.0723
G1 X 26.5040 Y 27.4300 Z-0.0722
G1 X 27.7525 Z-0.0717
G1 X 29.0010 Z-0.0712
G1 X 30.2495 Z-0.0705
G1 X 31.4980 Z-0.0696
G1 Y 27.9250 Z-0.0700
G1 X 32.7025 Z-0.0686
G1 X 33.9070 Z-0.0672
G1 Y 27.9130 Z-0.0673
G1 X 34.9430 Z-0.0661
G1 X 35.9790 Z-0.0650
G1 Y 27.9670 Z-0.0649
G1 X 35.2105 Z-0.0657
G1 X 34.4420 Z-0.0666
G1 X 34.3230 Y 27.9790 Z-0.0667
G1 X 34.2090 Y 28.0130 Z-0.0668
G1 X 34.1040 Y 28.0700 Z-0.0669
G1 X 34.0120 Y 28.1450
G1 X 33.5170 Y 28.6410 Z-0.0672
G1 X 32.7930 Z-0.0684
G1 X 32.0690 Z-0.0696
G1 Y 29.8450 Z-0.0702
G1 Y 31.0490 Z-0.0682
G1 X 33.1720 Z-0.0657
G1 X 34.2750 Z-0.0632
G1 Y 30.3255 Z-0.0640
G1 Y 29.6020 Z-0.0648
G1 X 34.6940 Y 29.1830 Z-0.0644
G1 X 35.3365 Z-0.0636
G1 X 35.9790 Z-0.0633
G1 Y 29.2530 Z-0.0632
G1 Y 29.3900 Z-0.0630
G1 X 35.5600 Z-0.0632
G1 X 35.4710 Y 29.3980
G1 X 35.3860 Y 29.4240
G1 X 35.3070 Y 29.4660
G1 X 35.2380 Y 29.5230 Z-0.0631
G1 X 35.1810 Y 29.5920 Z-0.0630
G1 X 35.1390 Y 29.6710 Z-0.0629
G1 X 35.1130 Y 29.7560 Z-0.0628
G1 X 35.1050 Y 29.8450 Z-0.0626
G1 Y 30.1380 Z-0.0623
G1 Y 30.4420 Z-0.0620
G1 Y 30.7470 Z-0.0618
G1 Y 31.0510 Z-0.0615
G1 Y 31.3560 Z-0.0613
G1 Y 31.6600 Z-0.0611
G1 Y 31.9640 Z-0.0608
G1 Y 32.0950 Z-0.0607
G1 Z 0.5493 F 3000.00
G1 X 35.4650 Y 32.6595 Z 0.5499 F 1200.00
G1 X 35.8250 Y 33.2240 Z 0.5507
G1 Z 0.0507 F 1500.00
G1 Z-0.0593 F 60.00
G1 X 35.7690 Y 33.1990 Z-0.0594 F 450.00
G1 X 35.8250 Y 33.2240 Z-0.0593
G1 Z 0.5507 F 3000.00
G1 X 36.6627 Y 33.5883 Z 0.5516 F 1200.00
G1 X 37.5003 Y 33.9527 Z 0.5526
G1 X 38.3380 Y 34.3170 Z 0.5537
G1 Z 0.0537 F 1500.00
G1 Z-0.0563 F 60.00
G1 X 38.3600 Y 34.3350 F 450.00
G1 X 38.3380 Y 34.3170
G1 Z 0.5537 F 3000.00
G1 X 38.4463 Y 33.3097 Z 0.5525 F 1200.00
G1 X 38.5547 Y 32.3023 Z 0.5512
G1 X 38.6630 Y 31.2950 Z 0.5500
G1 Z 0.0500 F 1500.00
G1 Z-0.0600 F 60.00
G1 Y 30.6100 Z-0.0609 F 450.00
G1 Z 0.0491 F 1500.00
G1 Z-0.0609 F 60.00
G1 X 38.5490 Z-0.0610 F 450.00
G1 X 38.6630 Z-0.0609
G1 Z 0.0491 F 1500.00
G1 Z-0.0609 F 60.00
G1 X 38.6720 F 450.00
G1 Y 29.9750 Z-0.0617
G1 Y 29.3400 Z-0.0619
G1 Z 0.0481 F 1500.00
G1 Z-0.0619 F 60.00
G1 Y 29.0800 F 450.00
G1 Z 0.0481 F 1500.00
G1 Z-0.0619 F 60.00
G1 Y 28.0760 Z-0.0621 F 450.00
G1 Z 0.5479 F 3000.00
G1 X 38.6630 Y 28.0700 F 1200.00
G1 Z 0.0479 F 1500.00
G1 Z-0.0621 F 60.00
G1 Y 27.4350 Z-0.0622 F 450.00
G1 Y 26.8000 Z-0.0624
G1 Z 0.5476 F 3000.00
G1 X 38.6720 Z 0.5477 F 1200.00
G1 Z 0.0477 F 1500.00
G1 Z-0.0623 F 60.00
G1 Y 26.5400 Z-0.0624 F 450.00
G1 Z 0.0476 F 1500.00
G1 Z-0.0624 F 60.00
G1 Y 25.9050 Z-0.0625 F 450.00
G1 Y 25.2700 Z-0.0626
G1 X 38.6630 Z-0.0627
G1 Z 0.0473 F 1500.00
G1 Z-0.0627 F 60.00
G1 X 37.7397 Z-0.0647 F 450.00
G1 X 36.8163 Z-0.0667
G1 X 35.8930 Z-0.0687
G1 Y 25.4270 Z-0.0685
G1 Z 0.5415 F 3000.00
G1 X 36.1530 Y 25.6010 Z 0.5423 F 1200.00
G1 Z 0.0423 F 1500.00
G1 Z-0.0677 F 60.00
G1 Y 25.5300 Z-0.0678 F 450.00
G1 X 37.2825 Z-0.0655
G1 X 38.4120 Z-0.0631
G1 Y 26.5390 Z-0.0628
G1 X 37.2825 Z-0.0647
G1 X 36.1530 Z-0.0665
G1 Y 26.4690 Z-0.0666
G1 X 35.2420 Z-0.0681
G1 X 35.1580 Y 26.4610 Z-0.0683
G1 X 35.0760 Y 26.4360 Z-0.0685
G1 X 35.0010 Y 26.3960 Z-0.0687
G1 X 34.9350 Y 26.3420 Z-0.0688
G1 X 34.4280 Y 25.8340 Z-0.0694
G1 X 33.2440 Z-0.0689
G1 X 32.0600 Z-0.0684
G1 X 30.8760 Z-0.0679
G1 Y 26.1640 Z-0.0684
G1 X 29.8450
G1 X 28.8140 Z-0.0695
G1 Y 25.2345 Z-0.0683
G1 Y 24.3050 Z-0.0686
G1 X 29.8450 Z-0.0671
G1 X 30.8760 Z-0.0674
G1 Y 24.9660 Z-0.0669
G1 X 32.1197 Z-0.0681
G1 X 33.3633 Z-0.0694
G1 X 34.6070 Z-0.0707
G1 X 34.6920 Y 24.9740 Z-0.0708
G1 X 34.7740 Y 24.9990 Z-0.0709
G1 X 34.8490 Y 25.0390
G1 X 34.9150 Y 25.0930
G1 X 35.4220 Y 25.6010 Z-0.0692
G1 X 36.1530 Z-0.0677
G1 Z 0.5423 F 3000.00
G1 X 35.9790 Y 26.6970 Z 0.5434 F 1200.00
G1 Z 0.0434 F 1500.00
G1 Z-0.0666 F 60.00
G1 Y 26.6430 Z-0.0667 F 450.00
G1 X 35.2420 Z-0.0679
G1 X 35.1240 Y 26.6310 Z-0.0681
G1 X 35.0100 Y 26.5960 Z-0.0683
G1 X 34.9050 Y 26.5400 Z-0.0684
G1 X 34.8130 Y 26.4650 Z-0.0686
G1 X 34.3560 Y 26.0080 Z-0.0692
G1 X 33.9070 Z-0.0690
G1 Y 26.6970 Z-0.0684
G1 X 34.9430 Z-0.0682
G1 X 35.9790 Z-0.0666
G1 X 35.8930 Z-0.0667
G1 Y 26.6430 Z-0.0668
G1 Y 26.6970 Z-0.0667
G1 Z 0.5433 F 3000.00
G1 Y 27.3320 Z 0.5441 F 1200.00
G1 Y 27.9670 Z 0.5450
G1 Z 0.0450 F 1500.00
G1 Z-0.0650 F 60.00
G1 Y 27.9130 Z-0.0651 F 450.00
G1 Y 27.9670 Z-0.0650
G1 X 36.0660 Y 28.0540 Z-0.0647
G1 X 35.2540 Z-0.0655
G1 X 34.4420 Z-0.0665
G1 X 34.3400 Y 28.0640 Z-0.0666
G1 X 34.2420 Y 28.0940 Z-0.0667
G1 X 34.1520 Y 28.1420
G1 X 34.0730 Y 28.2070 Z-0.0668
G1 X 33.5530 Y 28.7270 Z-0.0671
G1 X 32.8545 Z-0.0683
G1 X 32.1560 Z-0.0695
G1 Y 29.8450 Z-0.0699
G1 Y 30.9630 Z-0.0682
G1 X 33.1720 Z-0.0659
G1 X 34.1880 Z-0.0635
G1 Y 30.2645 Z-0.0643
G1 Y 29.5660 Z-0.0651
G1 X 34.6580 Y 29.0960 Z-0.0646
G1 X 35.3620 Z-0.0638
G1 X 36.0660 Z-0.0634
G1 Y 29.1660 Z-0.0633
G1 X 37.2825 Z-0.0626
G1 X 38.4990 Z-0.0620
G1 Y 27.9840 Z-0.0623
G1 X 37.2825 Z-0.0635
G1 X 36.0660 Z-0.0648
G1 Y 28.0540 Z-0.0647
G1 X 36.1530 Y 28.1410 Z-0.0645
G1 X 35.2975 Z-0.0653
G1 X 34.4420 Z-0.0664
G1 X 34.3570 Y 28.1490 Z-0.0665
G1 X 34.2760 Y 28.1740
G1 X 34.2010 Y 28.2140 Z-0.0666
G1 X 34.1350 Y 28.2680
G1 X 33.5890 Y 28.8140 Z-0.0670
G1 X 32.9155 Z-0.0682
G1 X 32.2420 Z-0.0694
G1 Y 29.8450 Z-0.0697
G1 Y 30.8760 Z-0.0682
G1 X 33.1715 Z-0.0660
G1 X 34.1010 Z-0.0638
G1 Y 30.2030 Z-0.0646
G1 Y 29.5300 Z-0.0653
G1 X 34.6220 Y 29.0090 Z-0.0648
G1 X 35.3875 Z-0.0639
G1 X 36.1530 Z-0.0634
G1 Y 29.0790 Z-0.0633
G1 X 37.2825 Z-0.0627
G1 X 38.4120 Z-0.0621
G1 Y 28.0700 Z-0.0624
G1 X 37.2825 Z-0.0635
G1 X 36.1530 Z-0.0646
G1 Y 28.1410 Z-0.0645
G1 Z 0.5455 F 3000.00
G1 X 35.4333 Y 27.6597 Z 0.5440 F 1200.00
G1 X 34.7137 Y 27.1783 Z 0.5425
G1 X 33.9940 Y 26.6970 Z 0.5416
G1 Z 0.0416 F 1500.00
G1 Z-0.0684 F 60.00
G1 Y 26.0080 Z-0.0691 F 450.00
G1 Z 0.5409 F 3000.00
G1 X 33.8200 Y 24.8310 Z 0.5403 F 1200.00
G1 Z 0.0403 F 1500.00
G1 Z-0.0697 F 60.00
G1 X 33.8400 Y 24.8470 Z-0.0698 F 450.00
G1 X 33.9000 Y 24.8790 Z-0.0699
G1 X 33.8200 Z-0.0698
G1 Y 24.8310 Z-0.0697
G1 Z 0.5403 F 3000.00
G1 X 34.7450 Y 24.9000 Z 0.5393 F 1200.00
G1 Z 0.0393 F 1500.00
G1 Z-0.0707 F 60.00
G1 X 34.6910 Y 24.9050 F 450.00
G1 X 34.7450 Y 24.9000
G1 X 34.8070 Y 24.9190 Z-0.0708
G1 X 34.7200 Y 24.8920 Z-0.0707
G1 X 34.7780
G1 X 35.5690 Y 24.8915 Z-0.0697
G1 X 36.3600 Y 24.8910 Z-0.0679
G1 X 36.4160 Y 24.8880 Z-0.0678
G1 X 36.4810 Y 24.8700 Z-0.0676
G1 X 36.5410 Y 24.8400 Z-0.0674
G1 X 37.2780 Y 24.3800 Z-0.0655
G1 X 37.6050 Y 24.1750 Z-0.0647
G1 X 37.6570 Y 24.1330 Z-0.0646
G1 X 37.7000 Y 24.0810 Z-0.0645
G1 X 37.7350 Y 24.0070 Z-0.0644
G1 X 37.7310 Y 24.0490
G1 Y 24.1300 Z-0.0645
G1 X 37.7380 Y 24.2020
G1 X 37.7590 Y 24.2710
G1 X 37.7930 Y 24.3350 Z-0.0644
G1 X 37.8390 Y 24.3910
G1 X 37.8950 Y 24.4360 Z-0.0643
G1 X 37.9590 Y 24.4710 Z-0.0642
G1 X 38.0280 Y 24.4920 Z-0.0640
G1 X 38.1000 Y 24.4990 Z-0.0639
G1 X 39.3085 Z-0.0614
G1 X 40.5170 Z-0.0602
G1 X 41.7255 Z-0.0608
G1 X 42.9340 Z-0.0614
G1 X 44.1425 Z-0.0619
G1 X 45.3510 Z-0.0624
G1 Y 24.6580
G1 Y 24.9630
G1 Y 25.2670 Z-0.0627
G1 Y 25.5710 Z-0.0629
G1 Y 25.8760 Z-0.0632
G1 Y 26.1800 Z-0.0635
G1 Y 26.4850 Z-0.0638
G1 Y 26.7890 Z-0.0641
G1 Y 27.0940 Z-0.0644
G1 Y 27.3980 Z-0.0646
G1 Y 27.7030 Z-0.0649
G1 Y 28.0070 Z-0.0652
G1 Y 28.3110 Z-0.0655
G1 Y 28.4290 Z-0.0656
G1 X 45.1110 Z-0.0654
G1 Y 27.9780 Z-0.0650
G1 X 44.0652 Z-0.0641
G1 X 43.0193 Z-0.0633
G1 X 41.9735 Z-0.0624
G1 X 40.9277 Z-0.0615
G1 X 39.8818 Z-0.0609
G1 X 38.8360 Z-0.0619
G1 Y 29.0957 Z-0.0618
G1 Y 30.2133 Z-0.0614
G1 Y 31.3310 Z-0.0599
G1 X 39.8818 Z-0.0595
G1 X 40.9277 Z-0.0606
G1 X 41.9735 Z-0.0619
G1 X 43.0193 Z-0.0632
G1 X 44.0652 Z-0.0644
G1 X 45.1110 Z-0.0657
G1 Y 30.9440 Z-0.0660
G1 X 45.3510 Z-0.0662
G1 Y 30.9560
G1 X 45.3580 Y 31.0280 Z-0.0661
G1 X 45.3790 Y 31.0970
G1 X 45.4130 Y 31.1610
G1 X 45.4590 Y 31.2170
G1 X 45.5150 Y 31.2630
G1 X 45.5790 Y 31.2970
G1 X 45.6480 Y 31.3180
G1 X 45.7200 Y 31.3250 Z-0.0662
G1 X 46.6725 Z-0.0669
G1 X 47.6250 Z-0.0677
G1 X 47.6970 Y 31.3180
G1 X 47.7660 Y 31.2970 Z-0.0678
G1 X 47.8300 Y 31.2630 Z-0.0679
G1 X 47.8860 Y 31.2170 Z-0.0681
G1 X 47.9310 Y 31.1610 Z-0.0682
G1 X 47.9660 Y 31.0970 Z-0.0683
G1 X 47.9870 Y 31.0280 Z-0.0685
G1 X 47.9940 Y 30.9560 Z-0.0686
G1 Y 30.7470 Z-0.0690
G1 Y 30.4420 Z-0.0695
G1 Y 30.1380 Z-0.0700
G1 Y 29.8330
G1 Y 29.5290 Z-0.0696
G1 Y 29.2240 Z-0.0691
G1 Y 28.9200 Z-0.0687
G1 Y 28.6160 Z-0.0682
G1 Y 28.3110 Z-0.0677
G1 Y 28.0070 Z-0.0673
G1 Y 27.7030 Z-0.0668
G1 Y 27.3980 Z-0.0664
G1 Y 27.0940 Z-0.0659
G1 Y 26.7890 Z-0.0655
G1 Y 26.4850 Z-0.0650
G1 Y 26.1800 Z-0.0645
G1 Y 25.8760 Z-0.0641
G1 Y 25.5710 Z-0.0636
G1 Y 25.2670 Z-0.0632
G1 Y 24.9630 Z-0.0628
G1 Y 24.6580
G1 Y 24.3540 Z-0.0629
G1 Y 24.0490 Z-0.0630
G1 Y 23.7450 Z-0.0631
G1 Y 23.4400 Z-0.0632
G1 Y 23.1360 Z-0.0633
G1 Y 22.8320 Z-0.0634
G1 Y 22.5270 Z-0.0635
G1 Y 22.2230
G1 Y 21.9180 Z-0.0636
G1 Y 21.6000 Z-0.0637
G1 X 48.0250 Y 21.6600
G1 X 48.0680 Y 21.7120
G1 X 48.1200 Y 21.7540
G1 X 48.1790 Y 21.7860
G1 X 48.2190 Y 21.7980 Z-0.0638
G1 Y 22.8822 Z-0.0634
G1 Y 23.9664 Z-0.0631
G1 Y 25.0506 Z-0.0629
G1 Y 26.1348 Z-0.0645
G1 Y 27.2190 Z-0.0662
G1 X 48.7540 Y 27.2210 Z-0.0666
G1 X 48.6900 Y 27.2550
G1 X 48.6340 Y 27.3010
G1 X 48.5880 Y 27.3560 Z-0.0667
G1 X 48.5540 Y 27.4200 Z-0.0668
G1 X 48.5330 Y 27.4890 Z-0.0669
G1 X 48.5260 Y 27.5610 Z-0.0670
G1 Y 27.7030 Z-0.0672
G1 Y 28.0070 Z-0.0677
G1 Y 28.3110 Z-0.0682
G1 Y 28.6160 Z-0.0687
G1 Y 28.9200 Z-0.0692
G1 Y 29.2240 Z-0.0697
G1 Y 29.5290 Z-0.0702
G1 Y 29.8330 Z-0.0707
G1 Y 30.1380
G1 Y 30.4420 Z-0.0701
G1 Y 30.7470 Z-0.0695
G1 Y 31.0510 Z-0.0689
G1 Y 31.3560 Z-0.0683
G1 Y 31.3810
G1 X 47.4086 Z-0.0674
G1 X 46.2911 Z-0.0665
G1 X 45.1737 Z-0.0657
G1 X 44.0562 Z-0.0644
G1 X 42.9388 Z-0.0630
G1 X 41.8213 Z-0.0616
G1 X 40.7039 Z-0.0603
G1 X 39.5864 Z-0.0596
G1 X 38.4690 Z-0.0600
G1 Y 31.3560
G1 Y 31.0510 Z-0.0604
G1 Y 30.7470 Z-0.0608
G1 Y 30.6720 Z-0.0609
G1 X 38.4620 Y 30.6000 Z-0.0610
G1 X 38.4410 Y 30.5310 Z-0.0611
G1 X 38.4060 Y 30.4670 Z-0.0612
G1 X 38.3810 Y 30.4360
G1 X 38.4990
G1 Y 29.2540 Z-0.0620
G1 X 37.2825 Z-0.0626
G1 X 36.0660 Z-0.0632
G1 Y 29.4760 Z-0.0629
G1 X 35.5600 Z-0.0631
G1 X 35.4880 Y 29.4830
G1 X 35.4190 Y 29.5040
G1 X 35.3550 Y 29.5380
G1 X 35.2990 Y 29.5840 Z-0.0630
G1 X 35.2530 Y 29.6400 Z-0.0629
G1 X 35.2190 Y 29.7040 Z-0.0628
G1 X 35.1980 Y 29.7730 Z-0.0627
G1 X 35.1910 Y 29.8450 Z-0.0626
G1 Y 30.1380 Z-0.0622
G1 Y 30.4420 Z-0.0620
G1 Y 30.7470 Z-0.0617
G1 Y 31.0510 Z-0.0615
G1 Y 31.3560 Z-0.0613
G1 Y 31.6600 Z-0.0610
G1 Y 31.9640 Z-0.0608
G1 Y 32.1810 Z-0.0606
G1 X 34.0310 Z-0.0625
G1 X 32.8710 Z-0.0646
G1 X 31.7110 Z-0.0667
G1 X 30.5510 Z-0.0689
G1 X 29.3910 Z-0.0699
G1 X 28.2310
G1 X 27.0710 Z-0.0700
G1 X 25.9110
G1 Y 31.9040 Z-0.0703
G1 X 25.2860 Z-0.0702
G1 Y 30.9045 Z-0.0708
G1 Y 29.9050 Z-0.0714
G1 X 25.2810 Y 29.8560 Z-0.0715
G1 Y 28.6200 Z-0.0721
G1 X 25.5190 Z-0.0722
G1 Y 29.4870 Z-0.0718
G1 Y 30.3540 Z-0.0714
G1 Y 31.2210 Z-0.0707
G1 X 26.5510 Z-0.0711
G1 Y 30.3540 Z-0.0722
G1 Y 29.4870 Z-0.0725
G1 Y 28.6200 Z-0.0724
G1 X 26.7890
G1 Y 29.4870 Z-0.0727
G1 Y 30.3540 Z-0.0723
G1 Y 31.2210 Z-0.0712
G1 X 27.8210 Z-0.0716
G1 Y 30.3540 Z-0.0731
G1 Y 29.4870 Z-0.0733
G1 Y 28.6200 Z-0.0726
G1 X 28.3660 Z-0.0727
G1 X 28.8390 Y 29.0930 Z-0.0735
G1 X 29.3120 Y 29.5660 Z-0.0744
G1 Y 30.2645 Z-0.0745
G1 Y 30.9630 Z-0.0728
G1 X 30.3280 Z-0.0724
G1 X 31.3440 Z-0.0701
G1 Y 29.8450 Z-0.0720
G1 Y 28.7270 Z-0.0709
G1 X 30.6455 Z-0.0722
G1 X 29.9470 Z-0.0733
G1 X 29.4485 Y 28.2285 Z-0.0723
G1 X 28.9500 Y 27.7300 Z-0.0716
G1 X 28.8710 Y 27.6660 Z-0.0715
G1 X 28.7810 Y 27.6170
G1 X 28.6830 Y 27.5880
G1 X 28.5820 Y 27.5780
G1 X 27.4292 Z-0.0719
G1 X 26.2765 Z-0.0723
G1 X 25.1238 Z-0.0728
G1 X 23.9710 Z-0.0742
G1 X 23.8700 Y 27.5880 Z-0.0743
G1 X 23.7720 Y 27.6170 Z-0.0744
G1 X 23.6820 Y 27.6660 Z-0.0745
G1 X 23.6030 Y 27.7300 Z-0.0747
G1 X 23.1270 Y 28.2070 Z-0.0755
G1 X 23.0620 Y 28.2860 Z-0.0756
G1 X 23.0140 Y 28.3760 Z-0.0757
G1 X 22.9840 Y 28.4730 Z-0.0758
G1 X 22.9740 Y 28.5750
G1 Y 29.2400 Z-0.0761
G1 Y 29.9050 Z-0.0763
G1 X 22.9790 Y 29.9540
G1 Y 30.5875 Z-0.0757
G1 Y 31.2210 Z-0.0751
G1 X 24.0110 Z-0.0728
G1 Y 30.5875 Z-0.0732
G1 Y 29.9540 Z-0.0737
G1 X 24.0160 Y 29.9050
G1 X 24.0110 Y 28.7960 Z-0.0739
G1 X 24.1870 Y 28.6200 Z-0.0736
G1 X 24.2490 Z-0.0735
G1 Y 29.8560 Z-0.0731
G1 X 24.2440 Y 29.9050
G1 Y 30.9045 Z-0.0725
G1 Y 31.9040 Z-0.0718
G1 X 23.8790 Z-0.0725
G1 X 23.8765 Y 33.0070 Z-0.0716
G1 X 23.8740 Y 34.1100 Z-0.0708
G1 X 23.1110 Z-0.0718
G1 Y 33.0070 Z-0.0730
G1 Y 31.9040 Z-0.0741
G1 X 22.7460 Z-0.0748
G1 Y 30.9045 Z-0.0760
G1 Y 29.9050 Z-0.0769
G1 X 22.7410 Y 29.8560
G1 Y 29.2225 Z-0.0766
G1 Y 28.5890 Z-0.0763
G1 X 21.7090 Z-0.0782
G1 Y 29.2225 Z-0.0788
G1 Y 29.8560 Z-0.0795
G1 X 21.7040 Y 29.9050 Z-0.0796
G1 Y 30.6560 Z-0.0787
G1 Y 31.4070 Z-0.0777
G1 X 21.6720 Y 31.3480 Z-0.0778
G1 X 21.6290 Y 31.2960 Z-0.0780
G1 X 21.5770 Y 31.2530 Z-0.0782
G1 X 21.5180 Y 31.2210 Z-0.0784
G1 X 21.4710 Y 31.2070 Z-0.0785
G1 Y 30.3343 Z-0.0798
G1 Y 29.4617 Z-0.0796
G1 Y 28.5890 Z-0.0786
G1 X 20.4390 Z-0.0805
G1 Y 29.4270 Z-0.0820
G1 Y 30.2650 Z-0.0825
G1 Y 31.1030 Z-0.0810
G1 X 20.3870 Y 31.0880 Z-0.0811
G1 X 20.3200 Y 31.0810 Z-0.0813
G1 X 20.2530 Y 31.0880 Z-0.0814
G1 X 20.2010 Y 31.1030 Z-0.0815
G1 Y 30.2650 Z-0.0831
G1 Y 29.4270 Z-0.0825
G1 Y 28.5890 Z-0.0810
G1 X 19.1690 Z-0.0836
G1 Y 28.6470 Z-0.0837
G1 X 19.1370 Y 28.5880
G1 X 19.0940 Y 28.5350
G1 X 19.0420 Y 28.4930 Z-0.0838
G1 X 18.9830 Y 28.4610 Z-0.0839
G1 X 20.1275 Z-0.0809
G1 X 21.2720 Z-0.0788
G1 X 21.3740 Y 28.4510 Z-0.0786
G1 X 21.4720 Y 28.4210 Z-0.0784
G1 X 21.5620 Y 28.3730 Z-0.0782
G1 X 21.6410 Y 28.3080 Z-0.0780
G1 X 22.1170 Y 27.8320 Z-0.0768
G1 X 22.5930 Y 27.3560 Z-0.0759
G1 X 22.6580 Y 27.2770 Z-0.0757
G1 X 22.7060 Y 27.1870 Z-0.0756
G1 X 22.7360 Y 27.0890 Z-0.0755
G1 X 22.7460 Y 26.9870
G1 Y 25.8460 Z-0.0749
G1 Y 24.7050 Z-0.0747
G1 X 22.7410 Y 24.6560
G1 Y 24.0225 Z-0.0750
G1 Y 23.3890 Z-0.0753
G1 X 21.7090 Z-0.0759
G1 Y 24.0225 Z-0.0753
G1 Y 24.6560 Z-0.0748
G1 X 21.7040 Y 24.7050 Z-0.0747
G1 Y 25.7385 Z-0.0752
G1 Y 26.7720 Z-0.0763
G1 X 21.0570 Y 27.4190 Z-0.0778
G1 X 20.9270 Y 27.4210 Z-0.0779
G1 X 21.0060 Y 27.3560 Z-0.0778
G1 X 21.3230 Y 27.0380 Z-0.0770
G1 X 21.3880 Y 26.9590 Z-0.0768
G1 X 21.4360 Y 26.8690 Z-0.0767
G1 X 21.4660 Y 26.7720 Z-0.0765
G1 X 21.4760 Y 26.6700 Z-0.0764
G1 Y 25.6875 Z-0.0753
G1 Y 24.7050 Z-0.0747
G1 X 21.4710 Y 24.6560 Z-0.0748
G1 Y 24.0225 Z-0.0754
G1 Y 23.3890 Z-0.0760
G1 X 20.4390 Z-0.0765
G1 Y 24.0225 Z-0.0757
G1 Y 24.6560 Z-0.0749
G1 X 20.4340 Y 24.7050 Z-0.0748
G1 Y 25.5795 Z-0.0754
G1 Y 26.4540 Z-0.0769
G1 X 20.4220 Y 26.4660
G1 X 19.7640 Z-0.0779
G1 X 19.1060 Z-0.0799
G1 X 19.1660 Y 26.4350 Z-0.0796
G1 X 19.2180 Y 26.3920 Z-0.0794
G1 X 19.2600 Y 26.3400 Z-0.0792
G1 X 19.2920 Y 26.2810 Z-0.0790
G1 X 19.3120 Y 26.2160 Z-0.0788
G1 X 19.3180 Y 26.1490 Z-0.0787
G1 X 19.3120 Y 26.0820 Z-0.0785
G1 X 19.2930 Y 26.0210
G1 X 20.2010 Z-0.0763
G1 Y 25.3875 Z-0.0751
G1 Y 24.7540 Z-0.0748
G1 X 20.2060 Y 24.7050
G1 Y 23.5475 Z-0.0764
G1 Y 22.3900 Z-0.0779
G1 X 20.8670 Z-0.0774
G1 Y 21.2725 Z-0.0787
G1 Y 20.1550 Z-0.0799
G1 X 20.7020 Z-0.0802
G1 Y 19.9690 Z-0.0804
G1 X 20.7340 Y 20.0280 Z-0.0803
G1 X 20.7760 Y 20.0800 Z-0.0802
G1 X 20.8280 Y 20.1230 Z-0.0800
G1 X 20.8880 Y 20.1550 Z-0.0799
G1 X 20.9520 Y 20.1740 Z-0.0798
G1 X 21.0190 Y 20.1810 Z-0.0797
G1 X 21.6780 Y 20.1800 Z-0.0786
G1 Y 21.2850 Z-0.0777
G1 Y 22.3900 Z-0.0767
G1 X 22.3260 Z-0.0762
G1 X 22.9740 Z-0.0757
G1 Y 23.5475 Z-0.0752
G1 Y 24.7050 Z-0.0747
G1 X 22.9790 Y 24.7540 Z-0.0746
G1 Y 25.3875 Z-0.0747
G1 Y 26.0210 Z-0.0749
G1 X 24.0110 Z-0.0744
G1 Y 25.3875 Z-0.0745
G1 Y 24.7540 Z-0.0746
G1 X 24.0160 Y 24.7050
G1 Y 24.0150 Z-0.0747
G1 Y 23.3250
G1 X 24.0610 Y 23.4070
G1 X 24.1070 Y 23.4560
G1 X 24.1620 Y 23.4960 Z-0.0746
G1 X 24.2230 Y 23.5230
G1 X 24.2490 Y 23.5290
G1 Y 24.7750
G1 Y 26.0210 Z-0.0743
G1 X 25.2810 Z-0.0735
G1 Y 24.8110 Z-0.0741
G1 Y 23.6010 Z-0.0739
G1 X 25.3240 Y 23.6050
G1 X 25.3910 Y 23.5980 Z-0.0738
G1 X 25.4550 Y 23.5790 Z-0.0737
G1 X 25.5190 Y 23.5440 Z-0.0736
G1 Y 24.6560 Z-0.0737
G1 X 25.5140 Y 24.7050
G1 Y 25.5285 Z-0.0735
G1 Y 26.3520 Z-0.0731
G1 X 25.5240 Y 26.4540
G1 X 25.5540 Y 26.5520 Z-0.0730
G1 X 25.6020 Y 26.6420 Z-0.0729
G1 X 25.6670 Y 26.7210
G1 X 26.1360 Y 27.1900 Z-0.0724
G1 X 26.2150 Y 27.2550
G1 X 26.3050 Y 27.3030 Z-0.0723
G1 X 26.4030 Y 27.3330
G1 X 26.5040 Y 27.3430 Z-0.0722
G1 X 27.5202 Z-0.0717
G1 X 28.5364 Z-0.0713
G1 X 29.5526 Z-0.0708
G1 X 30.5688 Z-0.0701
G1 X 31.5850 Z-0.0694
G1 Y 27.8380 Z-0.0698
G1 X 32.7025 Z-0.0686
G1 X 33.8200 Z-0.0674
G1 Y 27.8260
G1 X 34.9430 Z-0.0662
G1 X 36.0660 Z-0.0650
G1 Y 27.8960 Z-0.0649
G1 X 37.2825 Z-0.0636
G1 X 38.4990 Z-0.0623
G1 Y 26.7140 Z-0.0626
G1 X 37.2825 Z-0.0645
G1 X 36.0660 Z-0.0665
G1 Y 26.7840 Z-0.0664
G1 X 34.9430 Z-0.0680
G1 X 33.8200 Z-0.0683
G1 Y 25.9210 Z-0.0691
G1 X 34.3920 Z-0.0693
G1 X 34.8740 Y 26.4030 Z-0.0687
G1 X 34.9530 Y 26.4680 Z-0.0686
G1 X 35.0430 Y 26.5160 Z-0.0684
G1 X 35.1410 Y 26.5460 Z-0.0682
G1 X 35.2420 Y 26.5560 Z-0.0680
G1 X 36.0660 Z-0.0667
G1 Y 26.6260 Z-0.0666
G1 X 37.2825 Z-0.0646
G1 X 38.4990 Z-0.0627
G1 Y 25.4440 Z-0.0630
G1 X 37.2825 Z-0.0655
G1 X 36.0660 Z-0.0681
G1 Y 25.5140 Z-0.0680
G1 X 35.4580 Z-0.0693
G1 X 34.9760 Y 25.0320 Z-0.0710
G1 X 34.8970 Y 24.9670
G1 X 34.8070 Y 24.9190 Z-0.0708
G1 Z 0.5392 F 3000.00
G1 X 34.9710 Y 24.2365 Z 0.5402 F 1200.00
G1 X 35.1350 Y 23.5540 Z 0.5416
G1 Z 0.0416 F 1500.00
G1 Z-0.0684 F 60.00
G1 X 35.1290 Y 23.5470 F 450.00
G1 X 35.1060 Y 23.5080
G1 X 35.0940 Y 23.4650 Z-0.0683
G1 Y 23.3330 Z-0.0681
G1 Y 23.0800 Z-0.0677
G1 Y 22.9260 Z-0.0674
G1 X 35.1350
G1 Y 23.5540 Z-0.0684
G1 Z 0.5416 F 3000.00
G1 X 35.6810 Y 23.5720 Z 0.5424 F 1200.00
G1 Z 0.0424 F 1500.00
G1 Z-0.0676 F 60.00
G1 X 35.6830 F 450.00
G1 X 35.6810 Y 23.5870
G1 X 35.6840 Y 23.6130
G1 X 35.6810
G1 X 35.2420 Z-0.0683
G1 X 35.1990 Y 23.6010 Z-0.0684
G1 X 35.1600 Y 23.5790
G1 X 35.1530 Y 23.5720
G1 X 35.6810 Z-0.0676
G1 Z 0.5424 F 3000.00
G1 X 36.3290 Z 0.5435 F 1200.00
G1 X 36.9770 Z 0.5445
G1 Z 0.0445 F 1500.00
G1 Z-0.0655 F 60.00
G1 X 36.9700 Y 23.5790 F 450.00
G1 X 36.9310 Y 23.6010
G1 X 36.8880 Y 23.6130 Z-0.0656
G1 X 36.4480 Z-0.0664
G1 X 36.4460
G1 X 36.4480 Y 23.5870 Z-0.0663
G1 X 36.4470 Y 23.5720
G1 X 36.4480
G1 X 36.9770 Z-0.0655
G1 Z 0.5445 F 3000.00
G1 X 36.9940 Y 22.9260 Z 0.5451 F 1200.00
G1 Z 0.0451 F 1500.00
G1 Z-0.0649 F 60.00
G1 X 37.0360 F 450.00
G1 Y 23.0800 Z-0.0650
G1 Y 23.3330 Z-0.0652
G1 Y 23.4650 Z-0.0653
G1 X 37.0240 Y 23.5080
G1 X 37.0010 Y 23.5470 Z-0.0654
G1 X 36.9940 Y 23.5540
G1 Y 22.9260 Z-0.0649
G1 Z 0.5451 F 3000.00
G1 Y 22.2285 Z 0.5456 F 1200.00
G1 Y 21.5310 Z 0.5462
G1 Z 0.0462 F 1500.00
G1 Z-0.0638 F 60.00
G1 Y 22.1590 Z-0.0643 F 450.00
G1 X 37.0360
G1 Y 22.0650 Z-0.0642
G1 Y 21.8110 Z-0.0640
G1 Y 21.6200 Z-0.0639
G1 X 37.0240 Y 21.5770 Z-0.0638
G1 X 37.0010 Y 21.5380
G1 X 36.9940 Y 21.5310
G1 X 37.0130
G1 X 36.9940 Y 21.5210
G1 X 37.0130 Y 21.5310
G1 X 36.9310 Y 21.4840
G1 X 36.8880 Y 21.4720
G1 X 36.4480 Z-0.0641
G1 Y 21.5130 Z-0.0642
G1 X 36.9770 Z-0.0638
G1 X 36.9490 Y 21.4860
G1 X 36.9310 Y 21.4840
G1 Z 0.5462 F 3000.00
G1 X 37.7570 Y 21.3250 Z 0.5468 F 1200.00
G1 Z 0.0468 F 1500.00
G1 Z-0.0632 F 60.00
G1 Y 21.3040 F 450.00
G1 Y 21.3250
G1 X 37.7590 Y 21.3310
G1 X 37.7930 Y 21.3950
G1 X 37.8390 Y 21.4510
G1 X 37.8490 Y 21.4590
G1 Y 22.5425 Z-0.0636
G1 Y 23.6260 Z-0.0641
G1 X 37.8390 Y 23.6340
G1 X 37.7930 Y 23.6900 Z-0.0642
G1 X 37.7590 Y 23.7540 Z-0.0643
G1 X 37.7570 Y 23.7600
G1 Y 23.5870 Z-0.0642
G1 Y 23.3330 Z-0.0641
G1 Y 23.0800 Z-0.0640
G1 Y 22.8260 Z-0.0639
G1 Y 22.5720 Z-0.0638
G1 Y 22.3190 Z-0.0636
G1 Y 22.0650 Z-0.0635
G1 Y 21.8110 Z-0.0634
G1 Y 21.5580 Z-0.0633
G1 Y 21.3250 Z-0.0632
G1 Z 0.5468 F 3000.00
G1 X 38.7635 Y 21.4155 Z 0.5474 F 1200.00
G1 X 39.7700 Y 21.5060 Z 0.5480
G1 Z 0.0480 F 1500.00
G1 Z-0.0620 F 60.00
G1 X 39.8010 Y 21.5380 Z-0.0619 F 450.00
G1 X 39.8240 Y 21.5770
G1 X 39.8360 Y 21.6200
G1 Y 21.9180 Z-0.0617
G1 Y 22.1080 Z-0.0616
G1 X 39.7940
G1 Y 21.5310 Z-0.0619
G1 X 39.7770 Y 21.5130 Z-0.0620
G1 X 39.2990 Z-0.0623
G1 Y 21.4720
G1 X 39.6880 Z-0.0620
G1 X 39.7310 Y 21.4840
G1 X 39.7700 Y 21.5060
G1 Z 0.5480 F 3000.00
G1 X 39.7855 Y 22.5265 Z 0.5486 F 1200.00
G1 X 39.8010 Y 23.5470 Z 0.5491
G1 Z 0.0491 F 1500.00
G1 Z-0.0609 F 60.00
G1 X 39.7770 Y 23.5720 F 450.00
G1 X 39.7940 Y 23.5540
G1 Y 22.9770 Z-0.0612
G1 X 39.8360 Z-0.0611
G1 Y 23.1360 Z-0.0610
G1 Y 23.4400 Z-0.0609
G1 Y 23.4650
G1 X 39.8240 Y 23.5080
G1 X 39.8010 Y 23.5470
G1 X 39.7770 Y 23.5720
G1 X 39.7700 Y 23.5790
G1 X 39.7310 Y 23.6010 Z-0.0610
G1 X 39.6880 Y 23.6130
G1 X 39.2990 Z-0.0617
G1 Y 23.5720
G1 X 39.7770 Z-0.0609
G1 Z 0.5491 F 3000.00
G1 X 39.1040 Z 0.5480 F 1200.00
G1 X 38.4310 Z 0.5469
G1 Z 0.0469 F 1500.00
G1 Z-0.0631 F 60.00
G1 X 37.9360 Z-0.0639 F 450.00
G1 Y 22.5425 Z-0.0635
G1 Y 21.5130 Z-0.0632
G1 X 38.4310 Z-0.0629
G1 Y 21.4720
G1 X 38.1000 Z-0.0631
G1 X 38.0450 Y 21.4670
G1 X 37.9920 Y 21.4510
G1 X 37.9430 Y 21.4250 Z-0.0632
G1 X 37.9010 Y 21.3900
G1 X 37.8660 Y 21.3470
G1 X 37.8400 Y 21.2980
G1 X 37.8240 Y 21.2450
G1 X 37.8180 Y 21.1900 Z-0.0631
G1 Y 21.0050
G1 Y 20.7010 Z-0.0629
G1 Y 20.3960 Z-0.0628
G1 Y 20.0920 Z-0.0627
G1 Y 19.7870
G1 Y 19.4830
G1 Y 19.1790
G1 Y 18.8740
G1 Y 18.5700
G1 Y 18.2650 Z-0.0628
G1 Y 17.9610
G1 Y 17.6570
G1 Y 17.3520
G1 Y 17.0480
G1 Y 16.7430 Z-0.0629
G1 Y 16.4390
G1 Y 16.1340
G1 Y 15.8300
G1 Y 15.5250
G1 Y 15.2210
G1 Y 14.9170 Z-0.0630
G1 Y 14.6120 Z-0.0633
G1 Y 14.3080 Z-0.0636
G1 Y 14.0040 Z-0.0639
G1 Y 13.6990 Z-0.0642
G1 Y 13.3940 Z-0.0645
G1 Y 13.3350 Z-0.0646
G1 X 37.8240 Y 13.2800
G1 X 37.8400 Y 13.2270 Z-0.0647
G1 X 37.8660 Y 13.1780
G1 X 37.9010 Y 13.1360
G1 X 37.9430 Y 13.1010
G1 X 37.9920 Y 13.0750 Z-0.0646
G1 X 38.0450 Y 13.0590
G1 X 38.1000 Y 13.0530 Z-0.0645
G1 X 39.0130 Z-0.0634
G1 X 39.0680 Y 13.0590 Z-0.0633
G1 X 39.1200 Y 13.0750 Z-0.0632
G1 X 39.1690 Y 13.1010 Z-0.0631
G1 X 39.2120 Y 13.1360 Z-0.0630
G1 X 39.2470 Y 13.1780 Z-0.0629
G1 X 39.2730 Y 13.2270
G1 X 39.2890 Y 13.2800 Z-0.0628
G1 X 39.2940 Y 13.3350 Z-0.0627
G1 Y 13.3940 Z-0.0626
G1 Y 13.6990 Z-0.0622
G1 Y 14.0040 Z-0.0619
G1 Y 14.1710 Z-0.0616
G1 X 39.3360
G1 Y 13.2250 Z-0.0628
G1 X 40.0660 Z-0.0619
G1 Y 12.2000 Z-0.0633
G1 X 39.5405 Y 11.6750 Z-0.0645
G1 X 39.0150 Y 11.1500 Z-0.0657
G1 X 38.8410 Y 10.9370 Z-0.0661
G1 X 38.7120 Y 10.6960 Z-0.0665
G1 X 38.6320 Y 10.4330 Z-0.0668
G1 X 38.6060 Y 10.1600 Z-0.0672
G1 Y 9.1845 Z-0.0659
G1 Y 8.2090 Z-0.0643
G1 X 38.3760 Z-0.0644
G1 Y 7.1660 Z-0.0627
G1 Y 6.1230 Z-0.0609
G1 Y 5.0800 Z-0.0591
G1 Y 4.0370
G1 Y 2.9940 Z-0.0593
G1 Y 1.9510 Z-0.0595
G1 X 39.4620 Z-0.0589
G1 X 40.5480 Z-0.0582
G1 X 41.6340 Z-0.0574
G1 Y 2.9940 Z-0.0573
G1 Y 4.0370
G1 Y 5.0800
G1 Y 6.1230 Z-0.0588
G1 Y 7.1660 Z-0.0604
G1 Y 8.2090 Z-0.0619
G1 X 41.4040 Z-0.0621
G1 Y 8.8945 Z-0.0631
G1 Y 9.5800 Z-0.0642
G1 X 41.9295 Y 10.1050 Z-0.0641
G1 X 42.4550 Y 10.6300 Z-0.0631
G1 X 42.6290 Y 10.8420 Z-0.0628
G1 X 42.7580 Y 11.0840 Z-0.0626
G1 X 42.8380 Y 11.3470 Z-0.0624
G1 X 42.8640 Y 11.6200 Z-0.0622
G1 Y 12.4225 Z-0.0617
G1 Y 13.2250 Z-0.0612
G1 X 43.5940 Z-0.0611
G1 Y 14.1710 Z-0.0607
G1 X 43.6350
G1 Y 14.0040 Z-0.0608
G1 Y 13.6990 Z-0.0609
G1 Y 13.3940 Z-0.0610
G1 Y 13.3350
G1 X 43.6410 Y 13.2800
G1 X 43.6570 Y 13.2270 Z-0.0611
G1 X 43.6830 Y 13.1780
G1 X 43.7180 Y 13.1360
G1 X 43.7610 Y 13.1010
G1 X 43.8090 Y 13.0750
G1 X 43.8620 Y 13.0590
G1 X 43.9170 Y 13.0530 Z-0.0610
G1 X 45.1530 Z-0.0608
G1 X 46.3890 Z-0.0617
G1 X 47.6250 Z-0.0625
G1 X 47.6800 Y 13.0590 Z-0.0626
G1 X 47.7330 Y 13.0750
G1 X 47.7820 Y 13.1010
G1 X 47.8240 Y 13.1360
G1 X 47.8590 Y 13.1780
G1 X 47.8850 Y 13.2270 Z-0.0625
G1 X 47.9010 Y 13.2800
G1 X 47.9070 Y 13.3350 Z-0.0624
G1 Y 13.3940
G1 Y 13.6990 Z-0.0621
G1 Y 14.0040 Z-0.0618
G1 Y 14.3080 Z-0.0615
G1 Y 14.6120 Z-0.0611
G1 Y 14.9170 Z-0.0608
G1 Y 15.2210 Z-0.0609
G1 Y 15.5250 Z-0.0611
G1 Y 15.8300 Z-0.0613
G1 Y 16.1340 Z-0.0615
G1 Y 16.4390 Z-0.0617
G1 Y 16.7430 Z-0.0619
G1 Y 17.0480 Z-0.0621
G1 Y 17.3520 Z-0.0623
G1 Y 17.6570 Z-0.0625
G1 Y 17.9610 Z-0.0627
G1 Y 18.2650 Z-0.0629
G1 Y 18.5700 Z-0.0632
G1 Y 18.8740 Z-0.0634
G1 Y 19.1790 Z-0.0636
G1 Y 19.4830 Z-0.0638
G1 Y 19.7870 Z-0.0640
G1 Y 20.0920 Z-0.0641
G1 Y 20.3960 Z-0.0640
G1 Y 20.7010 Z-0.0639
G1 Y 21.0050 Z-0.0638
G1 Y 21.3100
G1 Y 21.6140 Z-0.0637
G1 Y 21.9180 Z-0.0636
G1 Y 22.2230 Z-0.0635
G1 Y 22.5270 Z-0.0634
G1 Y 22.8320 Z-0.0633
G1 Y 23.1360
G1 Y 23.4400 Z-0.0632
G1 Y 23.7450 Z-0.0631
G1 Y 24.0490 Z-0.0630
G1 Y 24.3540 Z-0.0629
G1 Y 24.6580 Z-0.0628
G1 Y 24.9630
G1 Y 25.2670 Z-0.0631
G1 Y 25.5710 Z-0.0636
G1 Y 25.8760 Z-0.0640
G1 Y 26.1800 Z-0.0645
G1 Y 26.4850 Z-0.0650
G1 Y 26.7890 Z-0.0654
G1 Y 27.0940 Z-0.0659
G1 Y 27.3980 Z-0.0663
G1 Y 27.7030 Z-0.0668
G1 Y 28.0070 Z-0.0672
G1 Y 28.3110 Z-0.0677
G1 Y 28.6160 Z-0.0681
G1 Y 28.9200 Z-0.0686
G1 Y 29.2240 Z-0.0690
G1 Y 29.5290 Z-0.0695
G1 Y 29.8330 Z-0.0699
G1 Y 30.1380
G1 Y 30.4420 Z-0.0694
G1 Y 30.7470 Z-0.0689
G1 Y 30.9560 Z-0.0685
G1 X 47.9010 Y 31.0110 Z-0.0684
G1 X 47.8850 Y 31.0640 Z-0.0683
G1 X 47.8590 Y 31.1130 Z-0.0682
G1 X 47.8240 Y 31.1560 Z-0.0681
G1 X 47.7820 Y 31.1910 Z-0.0680
G1 X 47.7330 Y 31.2170 Z-0.0679
G1 X 47.6800 Y 31.2330
G1 X 47.6250 Y 31.2380 Z-0.0678
G1 X 46.6725 Z-0.0670
G1 X 45.7200 Z-0.0663
G1 X 45.6650 Y 31.2330 Z-0.0662
G1 X 45.6120 Y 31.2170
G1 X 45.5630 Y 31.1910
G1 X 45.5210 Y 31.1560
G1 X 45.4860 Y 31.1130
G1 X 45.4600 Y 31.0640
G1 X 45.4440 Y 31.0110
G1 X 45.4380 Y 30.9560 Z-0.0663
G1 Y 30.8570 Z-0.0664
G1 X 45.0240 Z-0.0660
G1 Y 31.2440 Z-0.0657
G1 X 43.8038 Z-0.0642
G1 X 42.5836 Z-0.0627
G1 X 41.3634 Z-0.0613
G1 X 40.1432 Z-0.0598
G1 X 38.9230 Z-0.0600
G1 Y 30.1843 Z-0.0614
G1 Y 29.1247 Z-0.0618
G1 Y 28.0650
G1 X 40.1432 Z-0.0609
G1 X 41.3634 Z-0.0619
G1 X 42.5836 Z-0.0630
G1 X 43.8038 Z-0.0640
G1 X 45.0240 Z-0.0650
G1 Y 28.5150 Z-0.0654
G1 X 45.4380 Z-0.0658
G1 Y 28.3110 Z-0.0656
G1 Y 28.0070 Z-0.0653
G1 Y 27.7030 Z-0.0650
G1 Y 27.3980 Z-0.0647
G1 Y 27.0940 Z-0.0644
G1 Y 26.7890 Z-0.0641
G1 Y 26.4850 Z-0.0638
G1 Y 26.1800 Z-0.0635
G1 Y 25.8760 Z-0.0633
G1 Y 25.5710 Z-0.0630
G1 Y 25.2670 Z-0.0627
G1 Y 24.9630 Z-0.0624
G1 Y 24.6580
G1 Y 24.4120
G1 X 44.2150 Z-0.0620
G1 X 42.9920 Z-0.0614
G1 X 41.7690 Z-0.0608
G1 X 40.5460 Z-0.0603
G1 X 39.3230 Z-0.0614
G1 X 38.1000 Z-0.0638
G1 X 38.0450 Y 24.4060 Z-0.0640
G1 X 37.9920 Y 24.3900 Z-0.0641
G1 X 37.9430 Y 24.3640
G1 X 37.9010 Y 24.3290 Z-0.0642
G1 X 37.8660 Y 24.2870 Z-0.0643
G1 X 37.8400 Y 24.2380
G1 X 37.8240 Y 24.1850
G1 X 37.8180 Y 24.1300
G1 Y 24.0490
G1 Y 23.8950 Z-0.0642
G1 X 37.8240 Y 23.8400
G1 X 37.8400 Y 23.7870 Z-0.0641
G1 X 37.8660 Y 23.7380
G1 X 37.9010 Y 23.6950 Z-0.0640
G1 X 37.9430 Y 23.6600 Z-0.0639
G1 X 37.9920 Y 23.6340 Z-0.0638
G1 X 38.0450 Y 23.6180 Z-0.0637
G1 X 38.1000 Y 23.6130 Z-0.0636
G1 X 38.4310 Z-0.0631
G1 Y 23.5720
G1 Z 0.5469 F 3000.00
G1 X 37.6600 Y 24.2420 Z 0.5453 F 1200.00
G1 Z 0.0453 F 1500.00
G1 Z-0.0647 F 60.00
G1 X 37.6530 Y 24.2470 F 450.00
G1 X 37.6410 Y 24.2540
G1 X 37.3260 Y 24.4520 Z-0.0654
G1 X 36.5870 Y 24.9140 Z-0.0674
G1 X 36.5120 Y 24.9510 Z-0.0676
G1 X 36.4310 Y 24.9730 Z-0.0678
G1 X 36.3600 Y 24.9780 Z-0.0680
G1 Y 24.9790
G1 X 35.7030 Z-0.0695
G1 X 35.0460 Z-0.0710
G1 X 35.4940 Y 25.4270 Z-0.0693
G1 X 35.9790 Z-0.0683
G1 Y 25.3570 Z-0.0684
G1 X 36.8477 Z-0.0665
G1 X 37.7163 Z-0.0647
G1 X 38.5850 Z-0.0628
G1 Y 25.9920 Z-0.0627
G1 Y 26.6270 Z-0.0625
G1 Y 26.7130
G1 Y 27.8970 Z-0.0622
G1 Y 27.9830
G1 Y 29.1670 Z-0.0619
G1 Y 29.2530
